(.../EAGLE/ulps/pcb-gcode/pcb-gcode.ulp)
(Copyright 2005 - 2012 by John Johnson)
(See readme.txt for licensing terms.)
(This file generated from the board:)
(.../Schematics_new/Laser_Terminal_new.brd)
(Current profile is .../pcb-gcode-3.6.2.4/profiles/grbl-NuggetMill.pp  )
(This file generated 28/3/19 16:29)
(Settings from pcb-machine.h)
(spindle on time = 0.0000)
(  Tool Size)
(0.200000 )
(spindle speed = 30000.0000)
(tool change at 0.000000 0.000000 12.700000 )
(feed rate xy = F200   )
(feed rate z  = F144   )
(Z Axis Settings)
(  High     Up        Down     Drill)
(12.700000 	1.000000 	0.130000 	-1.650000 )
(Settings from pcb-defaults.h)
(isolate min = 0.2000)
(isolate max = 0.8000)
(isolate step = 0.2000)
(Generated bottom outlines, bottom drill, )
(Unit of measure: mm)
(Metric Mode)
G21
(Absolute Coordinates)
G90
G0 Z12.700000 
G0 X0.000000 Y0.000000 
M3
G4 P0
G0 Z1.000000 
G0 X-0.873700 Y2.138866 
G1 Z0.130000 F144   
G1 X-0.972091 Y2.040475 F200   
G1 X-2.040475 Y0.972100 
G1 X-2.138869 Y0.873700 
G1 X-2.252269 Y0.797934 
G1 X-2.383125 Y0.743144 
G1 X-2.519597 Y0.715997 
G1 X-56.480400 Y0.715997 
G1 X-56.616872 Y0.743144 
G1 X-56.745428 Y0.796394 
G1 X-56.861128 Y0.873700 
G1 X-56.959519 Y0.972091 
G1 X-58.126294 Y2.138866 
G1 X-58.203600 Y2.254566 
G1 X-58.256850 Y2.383122 
G1 X-58.283997 Y2.519594 
G1 X-58.283997 Y9.054497 
G1 X-58.256850 Y9.190969 
G1 X-58.203600 Y9.319525 
G1 X-58.126294 Y9.435225 
G1 X-58.027903 Y9.533616 
G1 X-57.912206 Y9.610922 
G1 X-57.783650 Y9.664172 
G1 X-57.654906 Y9.689778 
G1 X-57.508022 Y9.691319 
G1 X-57.371550 Y9.664172 
G1 X-56.717359 Y9.393197 
G1 X-56.058634 Y9.393197 
G1 X-55.450069 Y9.645269 
G1 X-55.356466 Y9.714872 
G1 X-55.313119 Y9.743837 
G1 X-55.268403 Y9.762359 
G1 X-55.184562 Y9.797091 
G1 X-55.129972 Y9.807950 
G1 X-55.048091 Y9.824241 
G1 X-54.908922 Y9.824241 
G1 X-54.822719 Y9.807094 
G1 X-54.772463 Y9.797100 
G1 X-54.643906 Y9.743853 
G1 X-54.573722 Y9.696956 
G1 X-53.939359 Y9.434197 
G1 X-53.187219 Y9.434197 
G1 X-53.050747 Y9.407050 
G1 X-52.922191 Y9.353800 
G1 X-52.806491 Y9.276494 
G1 X-52.708100 Y9.178103 
G1 X-52.630794 Y9.062403 
G1 X-52.577544 Y8.933847 
G1 X-52.550397 Y8.797375 
G1 X-52.550397 Y7.180734 
G1 X-52.379522 Y6.768209 
G1 X-48.905681 Y3.294369 
G1 X-48.539784 Y2.928472 
G1 X-48.127259 Y2.757597 
G1 X-34.856734 Y2.757597 
G1 X-34.444209 Y2.928472 
G1 X-34.078319 Y3.294363 
G1 X-33.979922 Y3.392762 
G1 X-31.106191 Y6.266494 
G1 X-30.990491 Y6.343800 
G1 X-30.861934 Y6.397050 
G1 X-30.725462 Y6.424197 
G1 X-30.550634 Y6.424197 
G1 X-29.931306 Y6.680728 
G1 X-29.901903 Y6.700375 
G1 X-29.834628 Y6.745331 
G1 X-29.798722 Y6.760206 
G1 X-29.706075 Y6.798588 
G1 X-29.672266 Y6.805313 
G1 X-29.569600 Y6.825737 
G1 X-29.500794 Y6.825741 
G1 X-29.430450 Y6.825744 
G1 X-29.382103 Y6.816128 
G1 X-29.293975 Y6.798603 
G1 X-29.266544 Y6.787241 
G1 X-29.165416 Y6.745356 
G1 X-29.127016 Y6.719697 
G1 X-29.068681 Y6.680728 
G1 X-28.449359 Y6.424197 
G1 X-27.790634 Y6.424197 
G1 X-27.177841 Y6.678022 
G1 X-27.128244 Y6.711163 
G1 X-27.069625 Y6.750334 
G1 X-26.941072 Y6.803587 
G1 X-26.873372 Y6.817053 
G1 X-26.804597 Y6.830737 
G1 X-26.735791 Y6.830741 
G1 X-26.665447 Y6.830744 
G1 X-26.599416 Y6.817609 
G1 X-26.528972 Y6.803600 
G1 X-26.481709 Y6.784025 
G1 X-26.400413 Y6.750356 
G1 X-26.292150 Y6.678022 
G1 X-25.679359 Y6.424197 
G1 X-25.020634 Y6.424197 
G1 X-24.412063 Y6.676272 
G1 X-24.290575 Y6.797763 
G1 X-24.233291 Y6.836744 
G1 X-24.172753 Y6.877197 
G1 X-24.044197 Y6.930450 
G1 X-23.907725 Y6.957597 
G1 X-23.096734 Y6.957597 
G1 X-22.684206 Y7.128472 
G1 X-21.722062 Y8.090616 
G1 X-21.240050 Y8.572631 
G1 X-21.209437 Y8.607541 
G1 X-21.174525 Y8.638159 
G1 X-21.135887 Y8.663975 
G1 X-21.099044 Y8.692247 
G1 X-21.058828 Y8.715466 
G1 X-21.015912 Y8.733241 
G1 X-20.974244 Y8.753791 
G1 X-20.930272 Y8.768716 
G1 X-20.884731 Y8.777772 
G1 X-20.839838 Y8.789803 
G1 X-20.793797 Y8.795863 
G1 X-20.747347 Y8.795863 
G1 X-20.700981 Y8.798900 
G1 X-20.654647 Y8.795863 
G1 X-20.609084 Y8.786797 
G1 X-20.563025 Y8.780734 
G1 X-20.518172 Y8.768716 
G1 X-20.475256 Y8.750937 
G1 X-20.431262 Y8.736006 
G1 X-20.389616 Y8.715469 
G1 X-20.350959 Y8.689637 
G1 X-20.310759 Y8.666428 
G1 X-20.273919 Y8.638162 
G1 X-20.241050 Y8.605291 
G1 X-20.206144 Y8.574681 
G1 X-20.175525 Y8.539769 
G1 X-20.149709 Y8.501131 
G1 X-20.121437 Y8.464287 
G1 X-20.098219 Y8.424072 
G1 X-20.080444 Y8.381156 
G1 X-20.059894 Y8.339488 
G1 X-20.044969 Y8.295516 
G1 X-20.035909 Y8.249972 
G1 X-19.605447 Y7.500766 
G1 X-18.999228 Y6.894547 
G1 X-18.256766 Y6.465888 
G1 X-17.428663 Y6.243997 
G1 X-16.571334 Y6.243997 
G1 X-15.743228 Y6.465888 
G1 X-15.000766 Y6.894547 
G1 X-14.394547 Y7.500769 
G1 X-13.965887 Y8.243228 
G1 X-13.743997 Y9.071331 
G1 X-13.743997 Y9.928662 
G1 X-13.965887 Y10.756766 
G1 X-14.394547 Y11.499228 
G1 X-15.000769 Y12.105447 
G1 X-15.743228 Y12.534106 
G1 X-16.571331 Y12.755997 
G1 X-17.428663 Y12.755997 
G1 X-18.256766 Y12.534106 
G1 X-18.999228 Y12.105447 
G1 X-19.605447 Y11.499228 
G1 X-19.754291 Y11.241422 
G1 X-19.789006 Y11.181291 
G1 X-19.812225 Y11.141072 
G1 X-19.840503 Y11.104216 
G1 X-19.873350 Y11.071369 
G1 X-19.903969 Y11.036453 
G1 X-19.938894 Y11.005825 
G1 X-19.977500 Y10.980031 
G1 X-20.014363 Y10.951744 
G1 X-20.054594 Y10.928519 
G1 X-20.097491 Y10.910753 
G1 X-20.139163 Y10.890200 
G1 X-20.183150 Y10.875269 
G1 X-20.228694 Y10.866209 
G1 X-20.273569 Y10.854184 
G1 X-20.319622 Y10.848122 
G1 X-20.366072 Y10.848122 
G1 X-20.412422 Y10.845084 
G1 X-20.458775 Y10.848122 
G1 X-20.504341 Y10.857188 
G1 X-20.550378 Y10.863247 
G1 X-20.595247 Y10.875269 
G1 X-20.638147 Y10.893041 
G1 X-20.682141 Y10.907972 
G1 X-20.723803 Y10.928519 
G1 X-20.762425 Y10.954325 
G1 X-20.802647 Y10.977547 
G1 X-20.839503 Y11.005825 
G1 X-20.872350 Y11.038672 
G1 X-20.907266 Y11.069291 
G1 X-20.937894 Y11.104216 
G1 X-20.963687 Y11.142822 
G1 X-20.991975 Y11.179684 
G1 X-21.015200 Y11.219916 
G1 X-21.032966 Y11.262813 
G1 X-21.053519 Y11.304484 
G1 X-21.068450 Y11.348472 
G1 X-21.077509 Y11.394016 
G1 X-21.089534 Y11.438891 
G1 X-21.095597 Y11.484944 
G1 X-21.095597 Y11.531394 
G1 X-21.098634 Y11.577744 
G1 X-21.095597 Y16.368059 
G1 X-21.068450 Y16.504531 
G1 X-21.015200 Y16.633087 
G1 X-20.937894 Y16.748787 
G1 X-20.839503 Y16.847178 
G1 X-14.012369 Y23.674312 
G1 X-13.646472 Y24.040206 
G1 X-13.475597 Y24.452734 
G1 X-13.475597 Y26.443525 
G1 X-13.448450 Y26.580000 
G1 X-13.219609 Y27.132466 
G1 X-13.219609 Y27.677494 
G1 X-13.428178 Y28.181022 
G1 X-13.813566 Y28.566409 
G1 X-14.317094 Y28.774978 
G1 X-14.862125 Y28.774978 
G1 X-15.365653 Y28.566409 
G1 X-15.751041 Y28.181022 
G1 X-15.959609 Y27.677494 
G1 X-15.959609 Y27.132466 
G1 X-15.747544 Y26.620500 
G1 X-15.720397 Y26.484025 
G1 X-15.720397 Y25.363934 
G1 X-15.747544 Y25.227463 
G1 X-15.800794 Y25.098906 
G1 X-15.878100 Y24.983206 
G1 X-15.976491 Y24.884816 
G1 X-18.432506 Y22.428800 
G1 X-18.510159 Y22.351147 
G1 X-18.646594 Y22.253100 
G1 X-18.775150 Y22.199850 
G1 X-18.800825 Y22.194744 
G1 X-19.023766 Y21.971803 
G1 X-19.023766 Y21.922866 
G1 X-19.060428 Y21.738553 
G1 X-19.132341 Y21.564937 
G1 X-19.236744 Y21.408687 
G1 X-19.369625 Y21.275806 
G1 X-19.525875 Y21.171403 
G1 X-19.699491 Y21.099491 
G1 X-19.883803 Y21.062828 
G1 X-20.071725 Y21.062828 
G1 X-20.256038 Y21.099491 
G1 X-20.429653 Y21.171403 
G1 X-20.585903 Y21.275806 
G1 X-20.718784 Y21.408687 
G1 X-20.823187 Y21.564937 
G1 X-20.869737 Y21.677325 
G1 X-20.911172 Y21.647219 
G1 X-20.986975 Y21.612275 
G1 X-21.037537 Y21.588966 
G1 X-21.064047 Y21.580350 
G1 X-21.118694 Y21.569484 
G1 X-21.172841 Y21.556481 
G1 X-21.200522 Y21.553206 
G1 X-21.256203 Y21.553206 
G1 X-21.311884 Y21.551019 
G1 X-21.339675 Y21.553206 
G1 X-21.394313 Y21.564078 
G1 X-21.449319 Y21.572788 
G1 X-21.476147 Y21.580353 
G1 X-22.046328 Y21.590775 
G1 X-22.549856 Y21.382206 
G1 X-22.935244 Y20.996819 
G1 X-23.143812 Y20.493294 
G1 X-23.143812 Y19.948259 
G1 X-22.935244 Y19.444734 
G1 X-22.724603 Y19.234094 
G1 X-22.633366 Y19.142856 
G1 X-22.548900 Y19.020003 
G1 X-22.518347 Y18.946234 
G1 X-22.495653 Y18.891450 
G1 X-22.468506 Y18.754978 
G1 X-22.468506 Y18.615822 
G1 X-22.495653 Y18.479347 
G1 X-22.517072 Y18.427641 
G1 X-22.548900 Y18.350794 
G1 X-22.626206 Y18.235097 
G1 X-22.724600 Y18.136703 
G1 X-23.169522 Y17.691784 
G1 X-23.340397 Y17.279259 
G1 X-23.340397 Y13.212619 
G1 X-23.367544 Y13.076147 
G1 X-23.420794 Y12.947591 
G1 X-23.498100 Y12.831891 
G1 X-23.596491 Y12.733500 
G1 X-23.712191 Y12.656194 
G1 X-23.840747 Y12.602944 
G1 X-23.977219 Y12.575797 
G1 X-24.289359 Y12.575797 
G1 X-24.755150 Y12.382859 
G1 X-24.891622 Y12.355712 
G1 X-25.030775 Y12.355712 
G1 X-25.167250 Y12.382859 
G1 X-25.295803 Y12.436109 
G1 X-25.411503 Y12.513416 
G1 X-25.509894 Y12.611806 
G1 X-25.585659 Y12.725206 
G1 X-25.640450 Y12.856063 
G1 X-25.667597 Y12.992534 
G1 X-25.667597 Y18.549259 
G1 X-25.838472 Y18.961784 
G1 X-26.302759 Y19.426072 
G1 X-26.860913 Y19.984225 
G1 X-26.938219 Y20.099922 
G1 X-26.949172 Y20.126369 
G1 X-27.275625 Y20.452822 
G1 X-27.702156 Y20.629497 
G1 X-27.824775 Y20.629497 
G1 X-27.961247 Y20.656644 
G1 X-28.089803 Y20.709894 
G1 X-28.205503 Y20.787200 
G1 X-28.303894 Y20.885591 
G1 X-28.381200 Y21.001291 
G1 X-28.434450 Y21.129847 
G1 X-28.461597 Y21.266319 
G1 X-28.461597 Y26.268081 
G1 X-28.434450 Y26.404556 
G1 X-28.381200 Y26.533109 
G1 X-28.350850 Y26.578528 
G1 X-28.303894 Y26.648806 
G1 X-28.205503 Y26.747197 
G1 X-28.089800 Y26.824506 
G1 X-28.016031 Y26.855059 
G1 X-27.961247 Y26.877753 
G1 X-27.824775 Y26.904900 
G1 X-27.685619 Y26.904900 
G1 X-27.549144 Y26.877753 
G1 X-27.420591 Y26.824503 
G1 X-27.375172 Y26.794153 
G1 X-27.304894 Y26.747197 
G1 X-27.206503 Y26.648806 
G1 X-27.058806 Y26.501103 
G1 X-26.371894 Y26.216575 
G1 X-26.243328 Y26.163325 
G1 X-26.127631 Y26.086019 
G1 X-26.030781 Y25.989166 
G1 X-25.951931 Y25.871928 
G1 X-25.921378 Y25.798159 
G1 X-25.898684 Y25.743375 
G1 X-25.871537 Y25.606900 
G1 X-25.871537 Y25.467747 
G1 X-25.898684 Y25.331272 
G1 X-25.951934 Y25.202716 
G1 X-26.029241 Y25.087019 
G1 X-26.113303 Y25.002959 
G1 X-26.527347 Y24.588916 
G1 X-26.735916 Y24.085391 
G1 X-26.735916 Y23.540359 
G1 X-26.527347 Y23.036831 
G1 X-26.141959 Y22.651444 
G1 X-25.638431 Y22.442875 
G1 X-25.093400 Y22.442875 
G1 X-24.589872 Y22.651444 
G1 X-24.204484 Y23.036831 
G1 X-23.995916 Y23.540359 
G1 X-23.995916 Y23.602106 
G1 X-23.968769 Y23.738578 
G1 X-23.915519 Y23.867134 
G1 X-23.838213 Y23.982834 
G1 X-23.739822 Y24.081225 
G1 X-23.624122 Y24.158531 
G1 X-23.495566 Y24.211781 
G1 X-23.359094 Y24.238928 
G1 X-23.297350 Y24.238928 
G1 X-22.793822 Y24.447497 
G1 X-22.408434 Y24.832884 
G1 X-22.199866 Y25.336413 
G1 X-22.199866 Y25.881444 
G1 X-22.408431 Y26.384969 
G1 X-22.793825 Y26.770359 
G1 X-23.297350 Y26.978928 
G1 X-23.748675 Y26.978928 
G1 X-23.885147 Y27.006075 
G1 X-24.013703 Y27.059325 
G1 X-24.129403 Y27.136631 
G1 X-24.227794 Y27.235022 
G1 X-24.305100 Y27.350722 
G1 X-24.358350 Y27.479278 
G1 X-24.385497 Y27.615750 
G1 X-24.385497 Y28.287363 
G1 X-24.645306 Y28.914603 
G1 X-25.125387 Y29.394684 
G1 X-25.752628 Y29.654494 
G1 X-26.431566 Y29.654494 
G1 X-27.058806 Y29.394684 
G1 X-27.206497 Y29.246991 
G1 X-27.304894 Y29.148591 
G1 X-27.373328 Y29.102866 
G1 X-27.420591 Y29.071284 
G1 X-27.549144 Y29.018034 
G1 X-27.685619 Y28.990887 
G1 X-27.824775 Y28.990887 
G1 X-27.961247 Y29.018034 
G1 X-28.012953 Y29.039453 
G1 X-28.089800 Y29.071281 
G1 X-28.205500 Y29.148588 
G1 X-28.303894 Y29.246981 
G1 X-28.349619 Y29.315416 
G1 X-28.381200 Y29.362678 
G1 X-28.434450 Y29.491231 
G1 X-28.461597 Y29.627706 
G1 X-28.461597 Y31.084059 
G1 X-28.434450 Y31.220531 
G1 X-28.381200 Y31.349087 
G1 X-28.303894 Y31.464787 
G1 X-28.205503 Y31.563178 
G1 X-23.393944 Y36.374738 
G1 X-23.278244 Y36.452044 
G1 X-23.149687 Y36.505294 
G1 X-23.013216 Y36.532441 
G1 X-20.337897 Y36.532441 
G1 X-20.272041 Y36.519337 
G1 X-20.201431 Y36.505294 
G1 X-20.072866 Y36.452041 
G1 X-19.957169 Y36.374734 
G1 X-19.860319 Y36.277878 
G1 X-19.808503 Y36.201091 
G1 X-19.781478 Y36.160647 
G1 X-19.758941 Y36.106234 
G1 X-19.584316 Y36.235919 
G1 X-19.403316 Y36.328144 
G1 X-19.210113 Y36.390919 
G1 X-19.009469 Y36.422697 
G1 X-18.806322 Y36.422697 
G1 X-18.605678 Y36.390919 
G1 X-18.412475 Y36.328144 
G1 X-18.231475 Y36.235919 
G1 X-18.067125 Y36.116512 
G1 X-18.034312 Y36.160641 
G1 X-18.009341 Y36.198012 
G1 X-17.957009 Y36.276341 
G1 X-17.858619 Y36.374734 
G1 X-17.742922 Y36.452041 
G1 X-17.614366 Y36.505291 
G1 X-17.547587 Y36.518575 
G1 X-17.477891 Y36.532441 
G1 X-15.228778 Y36.532441 
G1 X-15.092306 Y36.505294 
G1 X-14.963750 Y36.452044 
G1 X-14.848050 Y36.374738 
G1 X-14.749659 Y36.276347 
G1 X-14.011784 Y35.538472 
G1 X-13.599259 Y35.367597 
G1 X-6.792275 Y35.367597 
G1 X-6.655803 Y35.340450 
G1 X-6.527247 Y35.287200 
G1 X-6.411547 Y35.209894 
G1 X-6.339937 Y35.138281 
G1 X-6.290859 Y35.089203 
G1 X-6.261294 Y35.059641 
G1 X-6.227641 Y35.015181 
G1 X-6.207209 Y34.978694 
G1 X-6.183987 Y34.943941 
G1 X-6.173306 Y34.918150 
G1 X-5.999794 Y35.010369 
G1 X-5.825916 Y35.098966 
G1 X-5.640319 Y35.159269 
G1 X-5.447575 Y35.189797 
G1 X-5.252422 Y35.189797 
G1 X-5.059678 Y35.159269 
G1 X-4.874081 Y35.098966 
G1 X-4.700203 Y35.010369 
G1 X-4.542322 Y34.895666 
G1 X-4.404331 Y34.757675 
G1 X-4.300966 Y34.615397 
G1 X-3.559244 Y34.615397 
G1 X-3.485666 Y34.716675 
G1 X-3.347675 Y34.854666 
G1 X-3.189794 Y34.969369 
G1 X-3.015916 Y35.057966 
G1 X-2.830319 Y35.118269 
G1 X-2.637575 Y35.148797 
G1 X-2.442422 Y35.148797 
G1 X-2.249678 Y35.118269 
G1 X-2.064081 Y35.057966 
G1 X-1.890203 Y34.969369 
G1 X-1.732322 Y34.854666 
G1 X-1.594331 Y34.716675 
G1 X-1.479628 Y34.558794 
G1 X-1.391031 Y34.384916 
G1 X-1.330728 Y34.199319 
G1 X-1.300200 Y34.006575 
G1 X-1.300200 Y33.811422 
G1 X-1.330728 Y33.618678 
G1 X-1.391031 Y33.433081 
G1 X-1.479628 Y33.259203 
G1 X-1.594331 Y33.101322 
G1 X-1.732322 Y32.963331 
G1 X-1.833581 Y32.889766 
G1 X-1.833581 Y32.388231 
G1 X-1.732322 Y32.314666 
G1 X-1.594331 Y32.176675 
G1 X-1.479628 Y32.018794 
G1 X-1.391031 Y31.844916 
G1 X-1.330728 Y31.659319 
G1 X-1.300200 Y31.466575 
G1 X-1.300200 Y31.271422 
G1 X-1.330728 Y31.078678 
G1 X-1.391031 Y30.893081 
G1 X-1.479628 Y30.719203 
G1 X-1.594331 Y30.561322 
G1 X-1.732322 Y30.423331 
G1 X-1.890203 Y30.308628 
G1 X-2.064081 Y30.220031 
G1 X-2.249678 Y30.159728 
G1 X-2.442422 Y30.129200 
G1 X-2.637575 Y30.129200 
G1 X-2.830319 Y30.159728 
G1 X-3.015916 Y30.220031 
G1 X-3.189794 Y30.308628 
G1 X-3.347675 Y30.423331 
G1 X-3.485666 Y30.561322 
G1 X-3.559244 Y30.662600 
G1 X-4.360541 Y30.662600 
G1 X-4.404331 Y30.602322 
G1 X-4.542322 Y30.464331 
G1 X-4.700203 Y30.349628 
G1 X-4.874081 Y30.261031 
G1 X-5.059678 Y30.200728 
G1 X-5.252422 Y30.170200 
G1 X-5.447575 Y30.170200 
G1 X-5.640319 Y30.200728 
G1 X-5.825916 Y30.261031 
G1 X-5.999794 Y30.349628 
G1 X-6.157675 Y30.464331 
G1 X-6.183987 Y30.416050 
G1 X-6.207216 Y30.381287 
G1 X-6.227641 Y30.344812 
G1 X-6.261294 Y30.300353 
G1 X-6.290859 Y30.270791 
G1 X-6.318006 Y30.239000 
G1 X-6.753722 Y29.807931 
G1 X-7.005797 Y29.199359 
G1 X-7.005797 Y28.540634 
G1 X-6.753719 Y27.932063 
G1 X-6.287931 Y27.466272 
G1 X-5.679359 Y27.214197 
G1 X-5.020634 Y27.214197 
G1 X-4.407188 Y27.468294 
G1 X-4.358744 Y27.500663 
G1 X-4.300125 Y27.539834 
G1 X-4.171572 Y27.593087 
G1 X-4.103872 Y27.606553 
G1 X-4.035097 Y27.620238 
G1 X-3.966291 Y27.620241 
G1 X-3.895947 Y27.620244 
G1 X-3.829916 Y27.607109 
G1 X-3.759472 Y27.593100 
G1 X-3.712209 Y27.573525 
G1 X-3.630912 Y27.539856 
G1 X-3.515213 Y27.462553 
G1 X-3.477931 Y27.425272 
G1 X-2.869359 Y27.173197 
G1 X-2.210637 Y27.173197 
G1 X-1.628447 Y27.414350 
G1 X-1.491972 Y27.441497 
G1 X-1.352819 Y27.441497 
G1 X-1.224081 Y27.415888 
G1 X-1.087791 Y27.361100 
G1 X-0.972091 Y27.283794 
G1 X-0.875241 Y27.186941 
G1 X-0.796394 Y27.069706 
G1 X-0.743144 Y26.941150 
G1 X-0.715997 Y26.804675 
G1 X-0.715997 Y25.724319 
G1 X-0.743144 Y25.587844 
G1 X-0.796394 Y25.459287 
G1 X-0.872162 Y25.345894 
G1 X-0.972091 Y25.245200 
G1 X-1.087791 Y25.167894 
G1 X-1.216347 Y25.114644 
G1 X-1.352819 Y25.087497 
G1 X-1.491972 Y25.087497 
G1 X-1.628447 Y25.114644 
G1 X-2.210637 Y25.355797 
G1 X-2.869359 Y25.355797 
G1 X-3.514813 Y25.088444 
G1 X-3.565344 Y25.054672 
G1 X-3.606603 Y25.037581 
G1 X-3.693897 Y25.001416 
G1 X-3.776056 Y24.985069 
G1 X-3.830369 Y24.974259 
G1 X-3.899559 Y24.974253 
G1 X-3.969522 Y24.974247 
G1 X-4.019497 Y24.984184 
G1 X-4.105997 Y25.001384 
G1 X-4.151228 Y25.020119 
G1 X-4.234556 Y25.054625 
G1 X-4.292703 Y25.093475 
G1 X-4.350259 Y25.131925 
G1 X-4.408991 Y25.190650 
G1 X-5.020634 Y25.445797 
G1 X-5.679359 Y25.445797 
G1 X-6.287931 Y25.193722 
G1 X-6.753719 Y24.727934 
G1 X-7.005797 Y24.119359 
G1 X-7.005797 Y23.460638 
G1 X-6.701519 Y22.726050 
G1 X-6.674372 Y22.589575 
G1 X-6.674372 Y22.450422 
G1 X-6.699981 Y22.321684 
G1 X-6.709425 Y22.294863 
G1 X-7.005797 Y21.579359 
G1 X-7.005797 Y20.920638 
G1 X-6.701519 Y20.186050 
G1 X-6.674372 Y20.049575 
G1 X-6.674372 Y19.910422 
G1 X-6.699981 Y19.781684 
G1 X-6.709425 Y19.754863 
G1 X-7.005797 Y19.039359 
G1 X-7.005797 Y18.380637 
G1 X-6.701519 Y17.646050 
G1 X-6.674372 Y17.509575 
G1 X-6.674372 Y17.370422 
G1 X-6.699981 Y17.241684 
G1 X-6.709425 Y17.214862 
G1 X-7.005797 Y16.499359 
G1 X-7.005797 Y15.840637 
G1 X-6.701519 Y15.106050 
G1 X-6.674372 Y14.969575 
G1 X-6.674372 Y14.830422 
G1 X-6.699981 Y14.701684 
G1 X-6.709425 Y14.674862 
G1 X-7.005797 Y13.959359 
G1 X-7.005797 Y13.300638 
G1 X-6.701519 Y12.566050 
G1 X-6.674372 Y12.429575 
G1 X-6.674372 Y12.290422 
G1 X-6.699981 Y12.161684 
G1 X-6.709425 Y12.134863 
G1 X-7.005797 Y11.419359 
G1 X-7.005797 Y10.760634 
G1 X-6.753719 Y10.152062 
G1 X-6.287931 Y9.686272 
G1 X-5.679359 Y9.434197 
G1 X-5.020634 Y9.434197 
G1 X-4.375169 Y9.701556 
G1 X-4.324594 Y9.735350 
G1 X-4.219178 Y9.779009 
G1 X-4.142541 Y9.799234 
G1 X-4.059572 Y9.815741 
G1 X-3.920409 Y9.815741 
G1 X-3.820666 Y9.795897 
G1 X-3.783947 Y9.788594 
G1 X-3.655381 Y9.735341 
G1 X-3.586638 Y9.689403 
G1 X-3.539691 Y9.658038 
G1 X-3.477928 Y9.596272 
G1 X-2.869359 Y9.344197 
G1 X-2.210637 Y9.344197 
G1 X-1.628447 Y9.585350 
G1 X-1.491972 Y9.612497 
G1 X-1.352819 Y9.612497 
G1 X-1.224081 Y9.586887 
G1 X-1.087791 Y9.532100 
G1 X-0.972091 Y9.454794 
G1 X-0.875241 Y9.357941 
G1 X-0.796394 Y9.240706 
G1 X-0.743144 Y9.112150 
G1 X-0.715997 Y8.975675 
G1 X-0.715997 Y2.519594 
G1 X-0.743144 Y2.383119 
G1 X-0.796394 Y2.254563 
G1 X-0.872162 Y2.141169 
G0 Z1.000000 
G0 X-1.594331 Y10.192322 
G1 Z0.130000 F144   
G1 X-1.732322 Y10.054331 F200   
G1 X-1.890203 Y9.939628 
G1 X-2.064081 Y9.851031 
G1 X-2.249678 Y9.790728 
G1 X-2.442422 Y9.760200 
G1 X-2.637575 Y9.760200 
G1 X-2.830319 Y9.790728 
G1 X-3.015916 Y9.851031 
G1 X-3.189794 Y9.939628 
G1 X-3.347675 Y10.054331 
G1 X-3.485666 Y10.192322 
G1 X-3.600369 Y10.350203 
G1 X-3.617384 Y10.383600 
G1 X-4.330750 Y10.383600 
G1 X-4.404331 Y10.282322 
G1 X-4.542322 Y10.144331 
G1 X-4.700203 Y10.029628 
G1 X-4.874081 Y9.941031 
G1 X-5.059678 Y9.880728 
G1 X-5.252422 Y9.850200 
G1 X-5.447575 Y9.850200 
G1 X-5.640319 Y9.880728 
G1 X-5.825916 Y9.941031 
G1 X-5.999794 Y10.029628 
G1 X-6.157675 Y10.144331 
G1 X-6.295666 Y10.282322 
G1 X-6.410369 Y10.440203 
G1 X-6.498966 Y10.614081 
G1 X-6.559269 Y10.799678 
G1 X-6.589797 Y10.992422 
G1 X-6.589797 Y11.187575 
G1 X-6.559269 Y11.380319 
G1 X-6.498966 Y11.565916 
G1 X-6.410369 Y11.739794 
G1 X-6.295666 Y11.897675 
G1 X-6.157675 Y12.035666 
G1 X-5.999794 Y12.150369 
G1 X-5.825916 Y12.238966 
G1 X-5.640319 Y12.299269 
G1 X-5.447575 Y12.329797 
G1 X-5.252422 Y12.329797 
G1 X-5.059678 Y12.299269 
G1 X-4.874081 Y12.238966 
G1 X-4.700203 Y12.150369 
G1 X-4.542322 Y12.035666 
G1 X-4.404331 Y11.897675 
G1 X-4.330750 Y11.796397 
G1 X-3.493859 Y11.796397 
G1 X-3.347675 Y11.945666 
G1 X-3.189794 Y12.060369 
G1 X-3.015916 Y12.148966 
G1 X-2.830319 Y12.209269 
G1 X-2.637575 Y12.239797 
G1 X-2.442422 Y12.239797 
G1 X-2.249678 Y12.209269 
G1 X-2.064081 Y12.148966 
G1 X-1.890203 Y12.060369 
G1 X-1.732322 Y11.945666 
G1 X-1.594331 Y11.807675 
G1 X-1.479628 Y11.649794 
G1 X-1.391031 Y11.475916 
G1 X-1.330728 Y11.290319 
G1 X-1.300200 Y11.097575 
G1 X-1.300200 Y10.902422 
G1 X-1.330728 Y10.709678 
G1 X-1.391031 Y10.524081 
G1 X-1.479628 Y10.350203 
G1 X-1.594331 Y10.192322 
G0 Z1.000000 
G0 X-1.594331 Y12.732322 
G1 Z0.130000 F144   
G1 X-1.732322 Y12.594331 F200   
G1 X-1.890203 Y12.479628 
G1 X-2.064081 Y12.391031 
G1 X-2.249678 Y12.330728 
G1 X-2.442422 Y12.300200 
G1 X-2.637575 Y12.300200 
G1 X-2.830319 Y12.330728 
G1 X-3.015916 Y12.391031 
G1 X-3.189794 Y12.479628 
G1 X-3.347675 Y12.594331 
G1 X-3.485666 Y12.732322 
G1 X-3.559247 Y12.833600 
G1 X-4.396138 Y12.833600 
G1 X-4.542322 Y12.684331 
G1 X-4.700203 Y12.569628 
G1 X-4.874081 Y12.481031 
G1 X-5.059678 Y12.420728 
G1 X-5.252422 Y12.390200 
G1 X-5.447575 Y12.390200 
G1 X-5.640319 Y12.420728 
G1 X-5.825916 Y12.481031 
G1 X-5.999794 Y12.569628 
G1 X-6.157675 Y12.684331 
G1 X-6.295666 Y12.822322 
G1 X-6.410369 Y12.980203 
G1 X-6.498966 Y13.154081 
G1 X-6.559269 Y13.339678 
G1 X-6.589797 Y13.532422 
G1 X-6.589797 Y13.727575 
G1 X-6.559269 Y13.920319 
G1 X-6.498966 Y14.105916 
G1 X-6.410369 Y14.279794 
G1 X-6.295666 Y14.437675 
G1 X-6.157675 Y14.575666 
G1 X-5.999794 Y14.690369 
G1 X-5.825916 Y14.778966 
G1 X-5.640319 Y14.839269 
G1 X-5.447575 Y14.869797 
G1 X-5.252422 Y14.869797 
G1 X-5.059678 Y14.839269 
G1 X-4.874081 Y14.778966 
G1 X-4.700203 Y14.690369 
G1 X-4.542322 Y14.575666 
G1 X-4.404331 Y14.437675 
G1 X-4.289628 Y14.279794 
G1 X-4.272613 Y14.246397 
G1 X-3.559247 Y14.246397 
G1 X-3.485666 Y14.347675 
G1 X-3.347675 Y14.485666 
G1 X-3.189794 Y14.600369 
G1 X-3.015916 Y14.688966 
G1 X-2.830319 Y14.749269 
G1 X-2.637575 Y14.779797 
G1 X-2.442422 Y14.779797 
G1 X-2.249678 Y14.749269 
G1 X-2.064081 Y14.688966 
G1 X-1.890203 Y14.600369 
G1 X-1.732322 Y14.485666 
G1 X-1.594331 Y14.347675 
G1 X-1.479628 Y14.189794 
G1 X-1.391031 Y14.015916 
G1 X-1.330728 Y13.830319 
G1 X-1.300200 Y13.637575 
G1 X-1.300200 Y13.442422 
G1 X-1.330728 Y13.249678 
G1 X-1.391031 Y13.064081 
G1 X-1.479628 Y12.890203 
G1 X-1.594331 Y12.732322 
G0 Z1.000000 
G0 X-1.594331 Y15.272322 
G1 Z0.130000 F144   
G1 X-1.732322 Y15.134331 F200   
G1 X-1.890203 Y15.019628 
G1 X-2.064081 Y14.931031 
G1 X-2.249678 Y14.870728 
G1 X-2.442422 Y14.840200 
G1 X-2.637575 Y14.840200 
G1 X-2.830319 Y14.870728 
G1 X-3.015916 Y14.931031 
G1 X-3.189794 Y15.019628 
G1 X-3.347675 Y15.134331 
G1 X-3.485666 Y15.272322 
G1 X-3.559247 Y15.373600 
G1 X-4.396138 Y15.373600 
G1 X-4.542322 Y15.224331 
G1 X-4.700203 Y15.109628 
G1 X-4.874081 Y15.021031 
G1 X-5.059678 Y14.960728 
G1 X-5.252422 Y14.930200 
G1 X-5.447575 Y14.930200 
G1 X-5.640319 Y14.960728 
G1 X-5.825916 Y15.021031 
G1 X-5.999794 Y15.109628 
G1 X-6.157675 Y15.224331 
G1 X-6.295666 Y15.362322 
G1 X-6.410369 Y15.520203 
G1 X-6.498966 Y15.694081 
G1 X-6.559269 Y15.879678 
G1 X-6.589797 Y16.072422 
G1 X-6.589797 Y16.267575 
G1 X-6.559269 Y16.460319 
G1 X-6.498966 Y16.645916 
G1 X-6.410369 Y16.819794 
G1 X-6.295666 Y16.977675 
G1 X-6.157675 Y17.115666 
G1 X-5.999794 Y17.230369 
G1 X-5.825916 Y17.318966 
G1 X-5.640319 Y17.379269 
G1 X-5.447575 Y17.409797 
G1 X-5.252422 Y17.409797 
G1 X-5.059678 Y17.379269 
G1 X-4.874081 Y17.318966 
G1 X-4.700203 Y17.230369 
G1 X-4.542322 Y17.115666 
G1 X-4.404331 Y16.977675 
G1 X-4.289628 Y16.819794 
G1 X-4.272613 Y16.786397 
G1 X-3.559247 Y16.786397 
G1 X-3.485666 Y16.887675 
G1 X-3.347675 Y17.025666 
G1 X-3.189794 Y17.140369 
G1 X-3.015916 Y17.228966 
G1 X-2.830319 Y17.289269 
G1 X-2.637575 Y17.319797 
G1 X-2.442422 Y17.319797 
G1 X-2.249678 Y17.289269 
G1 X-2.064081 Y17.228966 
G1 X-1.890203 Y17.140369 
G1 X-1.732322 Y17.025666 
G1 X-1.594331 Y16.887675 
G1 X-1.479628 Y16.729794 
G1 X-1.391031 Y16.555916 
G1 X-1.330728 Y16.370319 
G1 X-1.300200 Y16.177575 
G1 X-1.300200 Y15.982422 
G1 X-1.330728 Y15.789678 
G1 X-1.391031 Y15.604081 
G1 X-1.479628 Y15.430203 
G1 X-1.594331 Y15.272322 
G0 Z1.000000 
G0 X-1.594331 Y17.812322 
G1 Z0.130000 F144   
G1 X-1.732322 Y17.674331 F200   
G1 X-1.890203 Y17.559628 
G1 X-2.064081 Y17.471031 
G1 X-2.249678 Y17.410728 
G1 X-2.442422 Y17.380200 
G1 X-2.637575 Y17.380200 
G1 X-2.830319 Y17.410728 
G1 X-3.015916 Y17.471031 
G1 X-3.189794 Y17.559628 
G1 X-3.347675 Y17.674331 
G1 X-3.485666 Y17.812322 
G1 X-3.600369 Y17.970203 
G1 X-3.617384 Y18.003600 
G1 X-4.330753 Y18.003600 
G1 X-4.404331 Y17.902322 
G1 X-4.542322 Y17.764331 
G1 X-4.700203 Y17.649628 
G1 X-4.874081 Y17.561031 
G1 X-5.059678 Y17.500728 
G1 X-5.252422 Y17.470200 
G1 X-5.447575 Y17.470200 
G1 X-5.640319 Y17.500728 
G1 X-5.825916 Y17.561031 
G1 X-5.999794 Y17.649628 
G1 X-6.157675 Y17.764331 
G1 X-6.295666 Y17.902322 
G1 X-6.410369 Y18.060203 
G1 X-6.498966 Y18.234081 
G1 X-6.559269 Y18.419678 
G1 X-6.589797 Y18.612422 
G1 X-6.589797 Y18.807575 
G1 X-6.559269 Y19.000319 
G1 X-6.498966 Y19.185916 
G1 X-6.410369 Y19.359794 
G1 X-6.295666 Y19.517675 
G1 X-6.157675 Y19.655666 
G1 X-5.999794 Y19.770369 
G1 X-5.825916 Y19.858966 
G1 X-5.640319 Y19.919269 
G1 X-5.447575 Y19.949797 
G1 X-5.252422 Y19.949797 
G1 X-5.059678 Y19.919269 
G1 X-4.874081 Y19.858966 
G1 X-4.700203 Y19.770369 
G1 X-4.542322 Y19.655666 
G1 X-4.404331 Y19.517675 
G1 X-4.330753 Y19.416397 
G1 X-3.493859 Y19.416397 
G1 X-3.347675 Y19.565666 
G1 X-3.189794 Y19.680369 
G1 X-3.015916 Y19.768966 
G1 X-2.830319 Y19.829269 
G1 X-2.637575 Y19.859797 
G1 X-2.442422 Y19.859797 
G1 X-2.249678 Y19.829269 
G1 X-2.064081 Y19.768966 
G1 X-1.890203 Y19.680369 
G1 X-1.732322 Y19.565666 
G1 X-1.594331 Y19.427675 
G1 X-1.479628 Y19.269794 
G1 X-1.391031 Y19.095916 
G1 X-1.330728 Y18.910319 
G1 X-1.300200 Y18.717575 
G1 X-1.300200 Y18.522422 
G1 X-1.330728 Y18.329678 
G1 X-1.391031 Y18.144081 
G1 X-1.479628 Y17.970203 
G1 X-1.594331 Y17.812322 
G0 Z1.000000 
G0 X-1.594331 Y20.352322 
G1 Z0.130000 F144   
G1 X-1.732322 Y20.214331 F200   
G1 X-1.890203 Y20.099628 
G1 X-2.064081 Y20.011031 
G1 X-2.249678 Y19.950728 
G1 X-2.442422 Y19.920200 
G1 X-2.637575 Y19.920200 
G1 X-2.830319 Y19.950728 
G1 X-3.015916 Y20.011031 
G1 X-3.189794 Y20.099628 
G1 X-3.347675 Y20.214331 
G1 X-3.485666 Y20.352322 
G1 X-3.559244 Y20.453600 
G1 X-4.396138 Y20.453600 
G1 X-4.542322 Y20.304331 
G1 X-4.700203 Y20.189628 
G1 X-4.874081 Y20.101031 
G1 X-5.059678 Y20.040728 
G1 X-5.252422 Y20.010200 
G1 X-5.447575 Y20.010200 
G1 X-5.640319 Y20.040728 
G1 X-5.825916 Y20.101031 
G1 X-5.999794 Y20.189628 
G1 X-6.157675 Y20.304331 
G1 X-6.295666 Y20.442322 
G1 X-6.410369 Y20.600203 
G1 X-6.498966 Y20.774081 
G1 X-6.559269 Y20.959678 
G1 X-6.589797 Y21.152422 
G1 X-6.589797 Y21.347575 
G1 X-6.559269 Y21.540319 
G1 X-6.498966 Y21.725916 
G1 X-6.410369 Y21.899794 
G1 X-6.295666 Y22.057675 
G1 X-6.157675 Y22.195666 
G1 X-5.999794 Y22.310369 
G1 X-5.825916 Y22.398966 
G1 X-5.640319 Y22.459269 
G1 X-5.447575 Y22.489797 
G1 X-5.252422 Y22.489797 
G1 X-5.059678 Y22.459269 
G1 X-4.874081 Y22.398966 
G1 X-4.700203 Y22.310369 
G1 X-4.542322 Y22.195666 
G1 X-4.404331 Y22.057675 
G1 X-4.289628 Y21.899794 
G1 X-4.272613 Y21.866397 
G1 X-3.559244 Y21.866397 
G1 X-3.485666 Y21.967675 
G1 X-3.347675 Y22.105666 
G1 X-3.189794 Y22.220369 
G1 X-3.015916 Y22.308966 
G1 X-2.830319 Y22.369269 
G1 X-2.637575 Y22.399797 
G1 X-2.442422 Y22.399797 
G1 X-2.249678 Y22.369269 
G1 X-2.064081 Y22.308966 
G1 X-1.890203 Y22.220369 
G1 X-1.732322 Y22.105666 
G1 X-1.594331 Y21.967675 
G1 X-1.479628 Y21.809794 
G1 X-1.391031 Y21.635916 
G1 X-1.330728 Y21.450319 
G1 X-1.300200 Y21.257575 
G1 X-1.300200 Y21.062422 
G1 X-1.330728 Y20.869678 
G1 X-1.391031 Y20.684081 
G1 X-1.479628 Y20.510203 
G1 X-1.594331 Y20.352322 
G0 Z1.000000 
G0 X-1.594331 Y22.892322 
G1 Z0.130000 F144   
G1 X-1.732322 Y22.754331 F200   
G1 X-1.890203 Y22.639628 
G1 X-2.064081 Y22.551031 
G1 X-2.249678 Y22.490728 
G1 X-2.442422 Y22.460200 
G1 X-2.637575 Y22.460200 
G1 X-2.830319 Y22.490728 
G1 X-3.015916 Y22.551031 
G1 X-3.189794 Y22.639628 
G1 X-3.347675 Y22.754331 
G1 X-3.485666 Y22.892322 
G1 X-3.559244 Y22.993600 
G1 X-4.396138 Y22.993600 
G1 X-4.542322 Y22.844331 
G1 X-4.700203 Y22.729628 
G1 X-4.874081 Y22.641031 
G1 X-5.059678 Y22.580728 
G1 X-5.252422 Y22.550200 
G1 X-5.447575 Y22.550200 
G1 X-5.640319 Y22.580728 
G1 X-5.825916 Y22.641031 
G1 X-5.999794 Y22.729628 
G1 X-6.157675 Y22.844331 
G1 X-6.295666 Y22.982322 
G1 X-6.410369 Y23.140203 
G1 X-6.498966 Y23.314081 
G1 X-6.559269 Y23.499678 
G1 X-6.589797 Y23.692422 
G1 X-6.589797 Y23.887575 
G1 X-6.559269 Y24.080319 
G1 X-6.498966 Y24.265916 
G1 X-6.410369 Y24.439794 
G1 X-6.295666 Y24.597675 
G1 X-6.157675 Y24.735666 
G1 X-5.999794 Y24.850369 
G1 X-5.825916 Y24.938966 
G1 X-5.640319 Y24.999269 
G1 X-5.447575 Y25.029797 
G1 X-5.252422 Y25.029797 
G1 X-5.059678 Y24.999269 
G1 X-4.874081 Y24.938966 
G1 X-4.700203 Y24.850369 
G1 X-4.542322 Y24.735666 
G1 X-4.404331 Y24.597675 
G1 X-4.289628 Y24.439794 
G1 X-4.272613 Y24.406397 
G1 X-3.559244 Y24.406397 
G1 X-3.485666 Y24.507675 
G1 X-3.347675 Y24.645666 
G1 X-3.189794 Y24.760369 
G1 X-3.015916 Y24.848966 
G1 X-2.830319 Y24.909269 
G1 X-2.637575 Y24.939797 
G1 X-2.442422 Y24.939797 
G1 X-2.249678 Y24.909269 
G1 X-2.064081 Y24.848966 
G1 X-1.890203 Y24.760369 
G1 X-1.732322 Y24.645666 
G1 X-1.594331 Y24.507675 
G1 X-1.479628 Y24.349794 
G1 X-1.391031 Y24.175916 
G1 X-1.330728 Y23.990319 
G1 X-1.300200 Y23.797575 
G1 X-1.300200 Y23.602422 
G1 X-1.330728 Y23.409678 
G1 X-1.391031 Y23.224081 
G1 X-1.479628 Y23.050203 
G1 X-1.594331 Y22.892322 
G0 Z1.000000 
G0 X-1.594331 Y28.021322 
G1 Z0.130000 F144   
G1 X-1.732322 Y27.883331 F200   
G1 X-1.890203 Y27.768628 
G1 X-2.064081 Y27.680031 
G1 X-2.249678 Y27.619728 
G1 X-2.442422 Y27.589200 
G1 X-2.637575 Y27.589200 
G1 X-2.830319 Y27.619728 
G1 X-3.015916 Y27.680031 
G1 X-3.189794 Y27.768628 
G1 X-3.347675 Y27.883331 
G1 X-3.485666 Y28.021322 
G1 X-3.589031 Y28.163600 
G1 X-4.330753 Y28.163600 
G1 X-4.404331 Y28.062322 
G1 X-4.542322 Y27.924331 
G1 X-4.700203 Y27.809628 
G1 X-4.874081 Y27.721031 
G1 X-5.059678 Y27.660728 
G1 X-5.252422 Y27.630200 
G1 X-5.447575 Y27.630200 
G1 X-5.640319 Y27.660728 
G1 X-5.825916 Y27.721031 
G1 X-5.999794 Y27.809628 
G1 X-6.157675 Y27.924331 
G1 X-6.295666 Y28.062322 
G1 X-6.410369 Y28.220203 
G1 X-6.498966 Y28.394081 
G1 X-6.559269 Y28.579678 
G1 X-6.589797 Y28.772422 
G1 X-6.589797 Y28.967575 
G1 X-6.559269 Y29.160319 
G1 X-6.498966 Y29.345916 
G1 X-6.410369 Y29.519794 
G1 X-6.295666 Y29.677675 
G1 X-6.157675 Y29.815666 
G1 X-5.999794 Y29.930369 
G1 X-5.825916 Y30.018966 
G1 X-5.640319 Y30.079269 
G1 X-5.447575 Y30.109797 
G1 X-5.252422 Y30.109797 
G1 X-5.059678 Y30.079269 
G1 X-4.874081 Y30.018966 
G1 X-4.700203 Y29.930369 
G1 X-4.542322 Y29.815666 
G1 X-4.404331 Y29.677675 
G1 X-4.330753 Y29.576397 
G1 X-3.529456 Y29.576397 
G1 X-3.485666 Y29.636675 
G1 X-3.347675 Y29.774666 
G1 X-3.189794 Y29.889369 
G1 X-3.015916 Y29.977966 
G1 X-2.830319 Y30.038269 
G1 X-2.637575 Y30.068797 
G1 X-2.442422 Y30.068797 
G1 X-2.249678 Y30.038269 
G1 X-2.064081 Y29.977966 
G1 X-1.890203 Y29.889369 
G1 X-1.732322 Y29.774666 
G1 X-1.594331 Y29.636675 
G1 X-1.479628 Y29.478794 
G1 X-1.391031 Y29.304916 
G1 X-1.330728 Y29.119319 
G1 X-1.300200 Y28.926575 
G1 X-1.300200 Y28.731422 
G1 X-1.330728 Y28.538678 
G1 X-1.391031 Y28.353081 
G1 X-1.479628 Y28.179203 
G1 X-1.594331 Y28.021322 
G0 Z1.000000 
G0 X-3.559244 Y32.075397 
G1 Z0.130000 F144   
G1 X-3.485666 Y32.176675 F200   
G1 X-3.347675 Y32.314666 
G1 X-3.246409 Y32.388234 
G1 X-3.246409 Y32.889763 
G1 X-3.347675 Y32.963331 
G1 X-3.485666 Y33.101322 
G1 X-3.559244 Y33.202600 
G1 X-4.360541 Y33.202600 
G1 X-4.404331 Y33.142322 
G1 X-4.542322 Y33.004331 
G1 X-4.643581 Y32.930766 
G1 X-4.643581 Y32.429231 
G1 X-4.542322 Y32.355666 
G1 X-4.404331 Y32.217675 
G1 X-4.300966 Y32.075397 
G1 X-3.559244 Y32.075397 
G0 Z1.000000 
G0 X-3.347675 Y35.503331 
G1 Z0.130000 F144   
G1 X-3.485666 Y35.641322 F200   
G1 X-3.589031 Y35.783600 
G1 X-4.330753 Y35.783600 
G1 X-4.404331 Y35.682322 
G1 X-4.542322 Y35.544331 
G1 X-4.700203 Y35.429628 
G1 X-4.874081 Y35.341031 
G1 X-5.059678 Y35.280728 
G1 X-5.252422 Y35.250200 
G1 X-5.447575 Y35.250200 
G1 X-5.640319 Y35.280728 
G1 X-5.825916 Y35.341031 
G1 X-5.999794 Y35.429628 
G1 X-6.157675 Y35.544331 
G1 X-6.295666 Y35.682322 
G1 X-6.369244 Y35.783600 
G1 X-13.445575 Y35.783600 
G1 X-13.582047 Y35.810747 
G1 X-13.710603 Y35.863997 
G1 X-13.826303 Y35.941303 
G1 X-14.833444 Y36.948444 
G1 X-23.408553 Y36.948444 
G1 X-28.877600 Y31.479397 
G1 X-28.877600 Y11.994328 
G1 X-28.850203 Y11.980369 
G1 X-28.692322 Y11.865666 
G1 X-28.554331 Y11.727675 
G1 X-28.439628 Y11.569794 
G1 X-28.351031 Y11.395916 
G1 X-28.290728 Y11.210319 
G1 X-28.260200 Y11.017575 
G1 X-28.260200 Y10.822422 
G1 X-28.290728 Y10.629678 
G1 X-28.351031 Y10.444081 
G1 X-28.439628 Y10.270203 
G1 X-28.554331 Y10.112322 
G1 X-28.692322 Y9.974331 
G1 X-28.850203 Y9.859628 
G1 X-29.024081 Y9.771031 
G1 X-29.209678 Y9.710728 
G1 X-29.402422 Y9.680200 
G1 X-29.597575 Y9.680200 
G1 X-29.790319 Y9.710728 
G1 X-29.975916 Y9.771031 
G1 X-30.149794 Y9.859628 
G1 X-30.307675 Y9.974331 
G1 X-30.445666 Y10.112322 
G1 X-30.560369 Y10.270203 
G1 X-30.648966 Y10.444081 
G1 X-30.709269 Y10.629678 
G1 X-30.739797 Y10.822422 
G1 X-30.739797 Y11.017575 
G1 X-30.709269 Y11.210319 
G1 X-30.648966 Y11.395916 
G1 X-30.560369 Y11.569794 
G1 X-30.445666 Y11.727675 
G1 X-30.307675 Y11.865666 
G1 X-30.290397 Y31.841575 
G1 X-30.263250 Y31.978047 
G1 X-30.210000 Y32.106603 
G1 X-30.132694 Y32.222303 
G1 X-30.034303 Y32.320694 
G1 X-24.249850 Y38.105144 
G1 X-24.151459 Y38.203538 
G1 X-24.035759 Y38.280844 
G1 X-23.907203 Y38.334094 
G1 X-23.770731 Y38.361241 
G1 X-14.471266 Y38.361241 
G1 X-14.334794 Y38.334094 
G1 X-14.206238 Y38.280844 
G1 X-14.090537 Y38.203538 
G1 X-13.083397 Y37.196397 
G1 X-6.369244 Y37.196397 
G1 X-6.295666 Y37.297675 
G1 X-6.157675 Y37.435666 
G1 X-5.999794 Y37.550369 
G1 X-5.825916 Y37.638966 
G1 X-5.640319 Y37.699269 
G1 X-5.447575 Y37.729797 
G1 X-5.252422 Y37.729797 
G1 X-5.059678 Y37.699269 
G1 X-4.874081 Y37.638966 
G1 X-4.700203 Y37.550369 
G1 X-4.542322 Y37.435666 
G1 X-4.404331 Y37.297675 
G1 X-4.330753 Y37.196397 
G1 X-3.529456 Y37.196397 
G1 X-3.485666 Y37.256675 
G1 X-3.347675 Y37.394666 
G1 X-3.189794 Y37.509369 
G1 X-3.015916 Y37.597966 
G1 X-2.830319 Y37.658269 
G1 X-2.637575 Y37.688797 
G1 X-2.442422 Y37.688797 
G1 X-2.249678 Y37.658269 
G1 X-2.064081 Y37.597966 
G1 X-1.890203 Y37.509369 
G1 X-1.732322 Y37.394666 
G1 X-1.594331 Y37.256675 
G1 X-1.479628 Y37.098794 
G1 X-1.391031 Y36.924916 
G1 X-1.330728 Y36.739319 
G1 X-1.300200 Y36.546575 
G1 X-1.300200 Y36.351422 
G1 X-1.330728 Y36.158678 
G1 X-1.391031 Y35.973081 
G1 X-1.479628 Y35.799203 
G1 X-1.594331 Y35.641322 
G1 X-1.732322 Y35.503331 
G1 X-1.890203 Y35.388628 
G1 X-2.064081 Y35.300031 
G1 X-2.249678 Y35.239728 
G1 X-2.442422 Y35.209200 
G1 X-2.637575 Y35.209200 
G1 X-2.830319 Y35.239728 
G1 X-3.015916 Y35.300031 
G1 X-3.189794 Y35.388628 
G1 X-3.347675 Y35.503331 
G0 Z1.000000 
G0 X-3.347675 Y38.043331 
G1 Z0.130000 F144   
G1 X-3.485666 Y38.181322 F200   
G1 X-3.600369 Y38.339203 
G1 X-3.688966 Y38.513081 
G1 X-3.749269 Y38.698678 
G1 X-3.779797 Y38.891422 
G1 X-3.779797 Y39.086575 
G1 X-3.749269 Y39.279319 
G1 X-3.688966 Y39.464916 
G1 X-3.600369 Y39.638794 
G1 X-3.485666 Y39.796675 
G1 X-3.347675 Y39.934666 
G1 X-3.189794 Y40.049369 
G1 X-3.015916 Y40.137966 
G1 X-2.830319 Y40.198269 
G1 X-2.637575 Y40.228797 
G1 X-2.442422 Y40.228797 
G1 X-2.249678 Y40.198269 
G1 X-2.064081 Y40.137966 
G1 X-1.890203 Y40.049369 
G1 X-1.732322 Y39.934666 
G1 X-1.594331 Y39.796675 
G1 X-1.479628 Y39.638794 
G1 X-1.391031 Y39.464916 
G1 X-1.330728 Y39.279319 
G1 X-1.300200 Y39.086575 
G1 X-1.300200 Y38.891422 
G1 X-1.330728 Y38.698678 
G1 X-1.391031 Y38.513081 
G1 X-1.479628 Y38.339203 
G1 X-1.594331 Y38.181322 
G1 X-1.732322 Y38.043331 
G1 X-1.890203 Y37.928628 
G1 X-2.064081 Y37.840031 
G1 X-2.249678 Y37.779728 
G1 X-2.442422 Y37.749200 
G1 X-2.637575 Y37.749200 
G1 X-2.830319 Y37.779728 
G1 X-3.015916 Y37.840031 
G1 X-3.189794 Y37.928628 
G1 X-3.347675 Y38.043331 
G0 Z1.000000 
G0 X-4.404331 Y38.222322 
G1 Z0.130000 F144   
G1 X-4.542322 Y38.084331 F200   
G1 X-4.700203 Y37.969628 
G1 X-4.874081 Y37.881031 
G1 X-5.059678 Y37.820728 
G1 X-5.252422 Y37.790200 
G1 X-5.447575 Y37.790200 
G1 X-5.640319 Y37.820728 
G1 X-5.825916 Y37.881031 
G1 X-5.999794 Y37.969628 
G1 X-6.157675 Y38.084331 
G1 X-6.295666 Y38.222322 
G1 X-6.410369 Y38.380203 
G1 X-6.498966 Y38.554081 
G1 X-6.559269 Y38.739678 
G1 X-6.589797 Y38.932422 
G1 X-6.589797 Y39.127575 
G1 X-6.559269 Y39.320319 
G1 X-6.498966 Y39.505916 
G1 X-6.410369 Y39.679794 
G1 X-6.295666 Y39.837675 
G1 X-6.157675 Y39.975666 
G1 X-5.999794 Y40.090369 
G1 X-5.825916 Y40.178966 
G1 X-5.640319 Y40.239269 
G1 X-5.447575 Y40.269797 
G1 X-5.252422 Y40.269797 
G1 X-5.059678 Y40.239269 
G1 X-4.874081 Y40.178966 
G1 X-4.700203 Y40.090369 
G1 X-4.542322 Y39.975666 
G1 X-4.404331 Y39.837675 
G1 X-4.289628 Y39.679794 
G1 X-4.201031 Y39.505916 
G1 X-4.140728 Y39.320319 
G1 X-4.110200 Y39.127575 
G1 X-4.110200 Y38.932422 
G1 X-4.140728 Y38.739678 
G1 X-4.201031 Y38.554081 
G1 X-4.289628 Y38.380203 
G1 X-4.404331 Y38.222322 
G0 Z1.000000 
G0 X-6.905831 Y38.249219 
G1 Z0.130000 F144   
G1 X-6.919087 Y38.182584 F200   
G1 X-6.932975 Y38.112753 
G1 X-6.986225 Y37.984197 
G1 X-7.011197 Y37.946825 
G1 X-7.063528 Y37.868497 
G1 X-7.161922 Y37.770103 
G1 X-7.217081 Y37.733250 
G1 X-7.277619 Y37.692797 
G1 X-7.327153 Y37.672281 
G1 X-7.406172 Y37.639547 
G1 X-7.472950 Y37.626263 
G1 X-7.542647 Y37.612397 
G1 X-12.688059 Y37.612397 
G1 X-12.824531 Y37.639544 
G1 X-12.953088 Y37.692794 
G1 X-13.068787 Y37.770100 
G1 X-13.167178 Y37.868491 
G1 X-13.905050 Y38.606366 
G1 X-14.317578 Y38.777241 
G1 X-15.824181 Y38.777241 
G1 X-15.893644 Y38.777241 
G1 X-15.949347 Y38.777241 
G1 X-15.977037 Y38.780519 
G1 X-16.031200 Y38.793525 
G1 X-16.085819 Y38.804387 
G1 X-16.112337 Y38.813003 
G1 X-16.162928 Y38.836328 
G1 X-16.214375 Y38.857638 
G1 X-16.283734 Y38.903984 
G1 X-16.330075 Y38.934944 
G1 X-16.389047 Y38.993919 
G1 X-16.428466 Y39.033334 
G1 X-16.474828 Y39.102725 
G1 X-16.505772 Y39.149034 
G1 X-16.537716 Y39.226156 
G1 X-16.559022 Y39.277591 
G1 X-16.566591 Y39.304425 
G1 X-16.575303 Y39.359437 
G1 X-16.652156 Y39.338953 
G1 X-16.837753 Y39.278650 
G1 X-17.030497 Y39.248122 
G1 X-17.225650 Y39.248122 
G1 X-17.418394 Y39.278650 
G1 X-17.603991 Y39.338953 
G1 X-17.677469 Y39.376394 
G1 X-17.689553 Y39.304425 
G1 X-17.697122 Y39.277591 
G1 X-17.718428 Y39.226156 
G1 X-17.737713 Y39.173878 
G1 X-17.781316 Y39.102725 
G1 X-17.810416 Y39.055234 
G1 X-17.867097 Y38.993919 
G1 X-17.904869 Y38.953053 
G1 X-17.972406 Y38.903984 
G1 X-18.017441 Y38.871263 
G1 X-18.093216 Y38.836328 
G1 X-18.143806 Y38.813003 
G1 X-18.170325 Y38.804387 
G1 X-18.224944 Y38.793525 
G1 X-18.279106 Y38.780519 
G1 X-18.306797 Y38.777241 
G1 X-18.362500 Y38.777241 
G1 X-18.418150 Y38.775053 
G1 X-23.924416 Y38.777241 
G1 X-24.336944 Y38.606366 
G1 X-24.702831 Y38.240475 
G1 X-24.801228 Y38.142075 
G1 X-25.653794 Y37.289509 
G1 X-25.769494 Y37.212203 
G1 X-25.898050 Y37.158953 
G1 X-26.034522 Y37.131806 
G1 X-26.173675 Y37.131806 
G1 X-26.310147 Y37.158953 
G1 X-26.438703 Y37.212203 
G1 X-26.554403 Y37.289509 
G1 X-26.652794 Y37.387900 
G1 X-26.730100 Y37.503600 
G1 X-26.783350 Y37.632156 
G1 X-26.810497 Y37.768628 
G1 X-26.810497 Y38.368837 
G1 X-26.940078 Y38.681669 
G1 X-26.967225 Y38.818144 
G1 X-26.967225 Y38.957297 
G1 X-26.941616 Y39.086034 
G1 X-26.886831 Y39.222325 
G1 X-26.809525 Y39.338022 
G1 X-26.768556 Y39.378988 
G1 X-26.863869 Y39.427550 
G1 X-27.021750 Y39.542253 
G1 X-27.128138 Y39.648644 
G1 X-27.141847 Y39.622216 
G1 X-27.167747 Y39.589363 
G1 X-27.190978 Y39.554591 
G1 X-27.227991 Y39.512937 
G1 X-27.259800 Y39.485772 
G1 X-27.289369 Y39.456200 
G1 X-27.333800 Y39.422566 
G1 X-27.370309 Y39.402122 
G1 X-27.405069 Y39.378894 
G1 X-27.430844 Y39.368219 
G1 X-27.495000 Y39.341644 
G1 X-27.533625 Y39.325644 
G1 X-27.560984 Y39.320203 
G1 X-27.587541 Y39.311572 
G1 X-27.629094 Y39.306653 
G1 X-27.670097 Y39.298497 
G1 X-27.698006 Y39.298497 
G1 X-27.725725 Y39.295216 
G1 X-27.767425 Y39.298497 
G1 X-28.201834 Y39.298497 
G1 X-28.228269 Y39.287547 
G1 X-28.281762 Y39.276906 
G1 X-28.364741 Y39.260397 
G1 X-33.721088 Y39.260397 
G1 X-33.762788 Y39.257116 
G1 X-33.790506 Y39.260397 
G1 X-33.818425 Y39.260397 
G1 X-33.859444 Y39.268556 
G1 X-33.900972 Y39.273472 
G1 X-33.927519 Y39.282097 
G1 X-33.954897 Y39.287544 
G1 X-33.993531 Y39.303547 
G1 X-34.033309 Y39.316472 
G1 X-34.083453 Y39.340794 
G1 X-34.118222 Y39.364028 
G1 X-34.154716 Y39.384462 
G1 X-34.199153 Y39.418100 
G1 X-34.228725 Y39.447672 
G1 X-34.260525 Y39.474831 
G1 X-34.297544 Y39.516491 
G1 X-34.320775 Y39.551259 
G1 X-34.346669 Y39.584106 
G1 X-34.370688 Y39.625962 
G1 X-34.454397 Y39.542253 
G1 X-34.612278 Y39.427550 
G1 X-34.786156 Y39.338953 
G1 X-34.971753 Y39.278650 
G1 X-35.164497 Y39.248122 
G1 X-35.359650 Y39.248122 
G1 X-35.552394 Y39.278650 
G1 X-35.737991 Y39.338953 
G1 X-35.911869 Y39.427550 
G1 X-36.069750 Y39.542253 
G1 X-36.153456 Y39.625962 
G1 X-36.177475 Y39.584106 
G1 X-36.203369 Y39.551259 
G1 X-36.226600 Y39.516491 
G1 X-36.263619 Y39.474831 
G1 X-36.295422 Y39.447672 
G1 X-36.324991 Y39.418100 
G1 X-36.369428 Y39.384462 
G1 X-36.405922 Y39.364025 
G1 X-36.440691 Y39.340794 
G1 X-36.466478 Y39.330112 
G1 X-36.530612 Y39.303547 
G1 X-36.569247 Y39.287544 
G1 X-36.596625 Y39.282097 
G1 X-36.623172 Y39.273472 
G1 X-36.664700 Y39.268556 
G1 X-36.705719 Y39.260397 
G1 X-36.733638 Y39.260397 
G1 X-36.761356 Y39.257116 
G1 X-36.803056 Y39.260397 
G1 X-42.095259 Y39.260397 
G1 X-42.510791 Y39.088278 
G1 X-42.574900 Y39.045437 
G1 X-42.621169 Y39.014516 
G1 X-42.698294 Y38.982569 
G1 X-42.749722 Y38.961262 
G1 X-42.776606 Y38.953681 
G1 X-42.831584 Y38.944978 
G1 X-42.886197 Y38.934112 
G1 X-42.914044 Y38.931922 
G1 X-42.969644 Y38.934109 
G1 X-43.025347 Y38.934106 
G1 X-43.053087 Y38.937391 
G1 X-43.107225 Y38.950391 
G1 X-43.161822 Y38.961250 
G1 X-43.188387 Y38.969881 
G1 X-43.238922 Y38.993184 
G1 X-43.290381 Y39.014494 
G1 X-43.359766 Y39.060853 
G1 X-43.406081 Y39.091797 
G1 X-43.465137 Y39.150853 
G1 X-43.504475 Y39.190188 
G1 X-43.550866 Y39.259613 
G1 X-43.581787 Y39.305881 
G1 X-43.613734 Y39.383006 
G1 X-43.635041 Y39.434434 
G1 X-43.668278 Y39.427550 
G1 X-43.842156 Y39.338953 
G1 X-44.027753 Y39.278650 
G1 X-44.220497 Y39.248122 
G1 X-44.415650 Y39.248122 
G1 X-44.608394 Y39.278650 
G1 X-44.793991 Y39.338953 
G1 X-44.967869 Y39.427550 
G1 X-45.125750 Y39.542253 
G1 X-45.263741 Y39.680244 
G1 X-45.378444 Y39.838125 
G1 X-45.467041 Y40.012003 
G1 X-45.527344 Y40.197600 
G1 X-45.557872 Y40.390344 
G1 X-45.557872 Y40.585497 
G1 X-45.527344 Y40.778241 
G1 X-45.467041 Y40.963837 
G1 X-45.378444 Y41.137716 
G1 X-45.263741 Y41.295597 
G1 X-45.125750 Y41.433588 
G1 X-45.134700 Y41.468181 
G1 X-45.169503 Y41.491434 
G1 X-45.211122 Y41.528416 
G1 X-45.238297 Y41.560231 
G1 X-45.267894 Y41.589825 
G1 X-45.301500 Y41.634216 
G1 X-45.321959 Y41.670747 
G1 X-45.345200 Y41.705525 
G1 X-45.355866 Y41.731275 
G1 X-45.382438 Y41.795431 
G1 X-45.398450 Y41.834081 
G1 X-45.403888 Y41.861431 
G1 X-45.412509 Y41.887950 
G1 X-45.417431 Y41.929509 
G1 X-45.425597 Y41.970553 
G1 X-45.425597 Y41.998434 
G1 X-45.428878 Y42.026131 
G1 X-45.425597 Y42.067869 
G1 X-45.425597 Y48.482950 
G1 X-45.409700 Y48.562850 
G1 X-45.398450 Y48.619413 
G1 X-45.345197 Y48.747978 
G1 X-45.299259 Y48.816722 
G1 X-45.267894 Y48.863669 
G1 X-45.169503 Y48.962059 
G1 X-45.053797 Y49.039372 
G1 X-44.925241 Y49.092619 
G1 X-44.857978 Y49.105994 
G1 X-44.788775 Y49.119763 
G1 X-44.649613 Y49.119763 
G1 X-44.569713 Y49.103866 
G1 X-44.513150 Y49.092616 
G1 X-44.384584 Y49.039363 
G1 X-44.315841 Y48.993425 
G1 X-44.268894 Y48.962059 
G1 X-44.170503 Y48.863669 
G1 X-44.093191 Y48.747962 
G1 X-44.048488 Y48.640028 
G1 X-43.582703 Y48.174244 
G1 X-42.974131 Y47.922169 
G1 X-42.786394 Y47.922169 
G1 X-42.739831 Y47.912906 
G1 X-42.649925 Y47.895025 
G1 X-42.521369 Y47.841775 
G1 X-42.466212 Y47.804919 
G1 X-42.405666 Y47.764466 
G1 X-42.307275 Y47.666075 
G1 X-40.841825 Y46.200644 
G1 X-40.743422 Y46.102247 
G1 X-40.666116 Y45.986547 
G1 X-40.634675 Y45.910644 
G1 X-40.612866 Y45.857997 
G1 X-40.585719 Y45.721519 
G1 X-40.585719 Y45.546709 
G1 X-40.333641 Y44.938138 
G1 X-39.867853 Y44.472350 
G1 X-39.259281 Y44.220272 
G1 X-38.600556 Y44.220272 
G1 X-37.991984 Y44.472350 
G1 X-37.526197 Y44.938138 
G1 X-37.274119 Y45.546709 
G1 X-37.274119 Y46.205434 
G1 X-37.526197 Y46.814006 
G1 X-37.991984 Y47.279794 
G1 X-38.600556 Y47.531872 
G1 X-38.775400 Y47.531872 
G1 X-38.821962 Y47.541134 
G1 X-38.911869 Y47.559016 
G1 X-39.040425 Y47.612266 
G1 X-39.095581 Y47.649122 
G1 X-39.156128 Y47.689575 
G1 X-39.254519 Y47.787966 
G1 X-40.732869 Y49.266297 
G1 X-40.827987 Y49.361416 
G1 X-40.908572 Y49.480384 
G1 X-40.961822 Y49.608941 
G1 X-40.988969 Y49.745416 
G1 X-40.988969 Y49.907331 
G1 X-41.241044 Y50.515903 
G1 X-41.725647 Y51.000503 
G1 X-41.812600 Y51.087456 
G1 X-41.901347 Y51.214591 
G1 X-41.954597 Y51.343147 
G1 X-41.981744 Y51.479622 
G1 X-41.981744 Y51.618775 
G1 X-41.956134 Y51.747512 
G1 X-41.901350 Y51.883803 
G1 X-41.824044 Y51.999500 
G1 X-41.725650 Y52.097894 
G1 X-41.609953 Y52.175200 
G1 X-41.481397 Y52.228450 
G1 X-41.344922 Y52.255597 
G1 X-38.064534 Y52.255597 
G1 X-37.928063 Y52.228450 
G1 X-37.799506 Y52.175200 
G1 X-37.683806 Y52.097894 
G1 X-37.585416 Y51.999503 
G1 X-37.161725 Y51.575812 
G1 X-37.084419 Y51.460113 
G1 X-37.031169 Y51.331556 
G1 X-37.004022 Y51.195084 
G1 X-37.004022 Y51.020259 
G1 X-36.751947 Y50.411687 
G1 X-36.286156 Y49.945897 
G1 X-35.680122 Y49.694875 
G1 X-35.580025 Y49.653416 
G1 X-35.551566 Y49.641628 
G1 X-35.435866 Y49.564322 
G1 X-35.385900 Y49.514353 
G1 X-35.337469 Y49.465925 
G1 X-35.276369 Y49.374478 
G1 X-35.249913 Y49.325478 
G1 X-35.206916 Y49.221678 
G1 X-34.955894 Y48.615634 
G1 X-34.490103 Y48.149844 
G1 X-33.881531 Y47.897769 
G1 X-33.705994 Y47.897769 
G1 X-33.659431 Y47.888506 
G1 X-33.569525 Y47.870625 
G1 X-33.440969 Y47.817375 
G1 X-33.385813 Y47.780519 
G1 X-33.325266 Y47.740066 
G1 X-33.226875 Y47.641675 
G1 X-31.785819 Y46.200641 
G1 X-31.690272 Y46.105094 
G1 X-31.650572 Y46.047091 
G1 X-31.610119 Y45.986553 
G1 X-31.556866 Y45.857997 
G1 X-31.529719 Y45.721525 
G1 X-31.529719 Y45.546709 
G1 X-31.277644 Y44.938138 
G1 X-30.811853 Y44.472347 
G1 X-30.203281 Y44.220272 
G1 X-29.544556 Y44.220272 
G1 X-28.935984 Y44.472347 
G1 X-28.470194 Y44.938138 
G1 X-28.218119 Y45.546706 
G1 X-28.218119 Y46.205434 
G1 X-28.470197 Y46.814006 
G1 X-28.935984 Y47.279794 
G1 X-29.544556 Y47.531872 
G1 X-29.719397 Y47.531872 
G1 X-29.765959 Y47.541134 
G1 X-29.855866 Y47.559016 
G1 X-29.984422 Y47.612266 
G1 X-30.039578 Y47.649122 
G1 X-30.100125 Y47.689575 
G1 X-30.198516 Y47.787966 
G1 X-31.640269 Y49.229697 
G1 X-31.735816 Y49.325241 
G1 X-31.775516 Y49.383247 
G1 X-31.815969 Y49.443784 
G1 X-31.869222 Y49.572341 
G1 X-31.896369 Y49.708813 
G1 X-31.896369 Y49.882931 
G1 X-32.148447 Y50.491503 
G1 X-32.614234 Y50.957291 
G1 X-33.220269 Y51.208316 
G1 X-33.320366 Y51.249775 
G1 X-33.348825 Y51.261562 
G1 X-33.464525 Y51.338869 
G1 X-33.514491 Y51.388838 
G1 X-33.562922 Y51.437266 
G1 X-33.624022 Y51.528712 
G1 X-33.650478 Y51.577712 
G1 X-33.693475 Y51.681512 
G1 X-33.944497 Y52.287553 
G1 X-34.054447 Y52.397503 
G1 X-34.147256 Y52.490313 
G1 X-34.167600 Y52.517984 
G1 X-34.230147 Y52.611587 
G1 X-34.283397 Y52.740144 
G1 X-34.310544 Y52.876619 
G1 X-34.310544 Y53.015775 
G1 X-34.301791 Y53.059772 
G1 X-34.283400 Y53.152244 
G1 X-34.230150 Y53.280800 
G1 X-34.152844 Y53.396500 
G1 X-34.054453 Y53.494891 
G1 X-33.938756 Y53.572200 
G1 X-33.810200 Y53.625450 
G1 X-33.673725 Y53.652597 
G1 X-30.454934 Y53.652597 
G1 X-30.318462 Y53.625450 
G1 X-30.189906 Y53.572200 
G1 X-30.074206 Y53.494894 
G1 X-29.975816 Y53.396503 
G1 X-28.252519 Y51.673206 
G1 X-28.169138 Y51.589825 
G1 X-28.076819 Y51.459119 
G1 X-28.023569 Y51.330562 
G1 X-27.996422 Y51.194088 
G1 X-27.996422 Y51.019259 
G1 X-27.744344 Y50.410688 
G1 X-27.278556 Y49.944897 
G1 X-26.672522 Y49.693875 
G1 X-26.572425 Y49.652416 
G1 X-26.543966 Y49.640628 
G1 X-26.428266 Y49.563322 
G1 X-26.378300 Y49.513353 
G1 X-26.329869 Y49.464925 
G1 X-26.268769 Y49.373478 
G1 X-26.242313 Y49.324478 
G1 X-26.199316 Y49.220678 
G1 X-25.948294 Y48.614634 
G1 X-25.482503 Y48.148844 
G1 X-24.873931 Y47.896769 
G1 X-24.656991 Y47.896769 
G1 X-24.610428 Y47.887506 
G1 X-24.520522 Y47.869625 
G1 X-24.391966 Y47.816375 
G1 X-24.336809 Y47.779519 
G1 X-24.276263 Y47.739066 
G1 X-24.177872 Y47.640675 
G1 X-22.737819 Y46.200641 
G1 X-22.642625 Y46.105447 
G1 X-22.602572 Y46.047091 
G1 X-22.562119 Y45.986553 
G1 X-22.508866 Y45.857997 
G1 X-22.481719 Y45.721522 
G1 X-22.481719 Y45.546709 
G1 X-22.229644 Y44.938138 
G1 X-21.763853 Y44.472347 
G1 X-21.155281 Y44.220272 
G1 X-20.496556 Y44.220272 
G1 X-19.887984 Y44.472347 
G1 X-19.422194 Y44.938138 
G1 X-19.170119 Y45.546709 
G1 X-19.170119 Y46.205434 
G1 X-19.422194 Y46.814006 
G1 X-19.887984 Y47.279797 
G1 X-20.496556 Y47.531872 
G1 X-20.671400 Y47.531872 
G1 X-20.807869 Y47.559016 
G1 X-20.936425 Y47.612266 
G1 X-21.052122 Y47.689572 
G1 X-21.147122 Y47.784572 
G1 X-22.632669 Y49.270097 
G1 X-22.727781 Y49.365206 
G1 X-22.808372 Y49.484184 
G1 X-22.861622 Y49.612741 
G1 X-22.888769 Y49.749216 
G1 X-22.888769 Y49.881931 
G1 X-23.140847 Y50.490503 
G1 X-23.606634 Y50.956291 
G1 X-24.212669 Y51.207316 
G1 X-24.312766 Y51.248775 
G1 X-24.341225 Y51.260562 
G1 X-24.456925 Y51.337869 
G1 X-24.506891 Y51.387838 
G1 X-24.555322 Y51.436266 
G1 X-24.616422 Y51.527712 
G1 X-24.642878 Y51.576712 
G1 X-24.685875 Y51.680512 
G1 X-24.936900 Y52.286556 
G1 X-25.402687 Y52.752344 
G1 X-26.011259 Y53.004422 
G1 X-26.186087 Y53.004422 
G1 X-26.322559 Y53.031569 
G1 X-26.451116 Y53.084819 
G1 X-26.566816 Y53.162125 
G1 X-26.665206 Y53.260516 
G1 X-27.297584 Y53.892894 
G1 X-27.374891 Y54.008594 
G1 X-27.428141 Y54.137150 
G1 X-27.455288 Y54.273622 
G1 X-27.455288 Y54.412775 
G1 X-27.428141 Y54.549247 
G1 X-27.374891 Y54.677803 
G1 X-27.297584 Y54.793503 
G1 X-27.199194 Y54.891894 
G1 X-27.083494 Y54.969200 
G1 X-26.954937 Y55.022450 
G1 X-26.818466 Y55.049597 
G1 X-22.830334 Y55.049597 
G1 X-22.693863 Y55.022450 
G1 X-22.565306 Y54.969200 
G1 X-22.449606 Y54.891894 
G1 X-22.351216 Y54.793503 
G1 X-19.243316 Y51.685606 
G1 X-19.170762 Y51.613050 
G1 X-19.144925 Y51.587216 
G1 X-19.067619 Y51.471519 
G1 X-19.014369 Y51.342962 
G1 X-18.987222 Y51.206488 
G1 X-18.987222 Y51.031659 
G1 X-18.735144 Y50.423088 
G1 X-18.269356 Y49.957297 
G1 X-17.663322 Y49.706275 
G1 X-17.563225 Y49.664816 
G1 X-17.534766 Y49.653028 
G1 X-17.419066 Y49.575722 
G1 X-17.369100 Y49.525753 
G1 X-17.320669 Y49.477325 
G1 X-17.259569 Y49.385878 
G1 X-17.233113 Y49.336878 
G1 X-17.190116 Y49.233078 
G1 X-16.939094 Y48.627034 
G1 X-16.473303 Y48.161244 
G1 X-15.864731 Y47.909169 
G1 X-15.753559 Y47.909169 
G1 X-15.690209 Y47.910284 
G1 X-15.615588 Y47.896803 
G1 X-15.553278 Y47.885547 
G1 X-15.482797 Y47.857797 
G1 X-15.423803 Y47.834572 
G1 X-15.360069 Y47.793591 
G1 X-15.306762 Y47.759316 
G1 X-15.252175 Y47.706619 
G1 X-13.657034 Y46.166725 
G1 X-13.607006 Y46.118431 
G1 X-13.561441 Y46.074444 
G1 X-13.518253 Y46.012209 
G1 X-13.482106 Y45.960125 
G1 X-13.451919 Y45.890725 
G1 X-13.426600 Y45.832528 
G1 X-13.410522 Y45.758534 
G1 X-13.397053 Y45.696553 
G1 X-13.395719 Y45.620781 
G1 X-13.394603 Y45.557425 
G1 X-13.143641 Y44.938138 
G1 X-12.677853 Y44.472347 
G1 X-12.069281 Y44.220272 
G1 X-11.410556 Y44.220272 
G1 X-10.801984 Y44.472347 
G1 X-10.336194 Y44.938138 
G1 X-10.084119 Y45.546709 
G1 X-10.084119 Y46.205434 
G1 X-10.336194 Y46.814006 
G1 X-10.801984 Y47.279797 
G1 X-11.410556 Y47.531872 
G1 X-11.547516 Y47.531872 
G1 X-11.610866 Y47.530756 
G1 X-11.685488 Y47.544238 
G1 X-11.747797 Y47.555494 
G1 X-11.818278 Y47.583244 
G1 X-11.877272 Y47.606469 
G1 X-11.940962 Y47.647422 
G1 X-11.994316 Y47.681725 
G1 X-12.048816 Y47.734341 
G1 X-13.618253 Y49.249422 
G1 X-13.668278 Y49.297716 
G1 X-13.713847 Y49.341703 
G1 X-13.757031 Y49.403937 
G1 X-13.793181 Y49.456022 
G1 X-13.823369 Y49.525422 
G1 X-13.848688 Y49.583619 
G1 X-13.864766 Y49.657612 
G1 X-13.878234 Y49.719594 
G1 X-13.879569 Y49.795366 
G1 X-13.880684 Y49.858722 
G1 X-13.879569 Y49.894331 
G1 X-14.131644 Y50.502903 
G1 X-14.597434 Y50.968694 
G1 X-15.203469 Y51.219716 
G1 X-15.303566 Y51.261175 
G1 X-15.332025 Y51.272962 
G1 X-15.447725 Y51.350269 
G1 X-15.497691 Y51.400238 
G1 X-15.546122 Y51.448666 
G1 X-15.607222 Y51.540112 
G1 X-15.633678 Y51.589112 
G1 X-15.676675 Y51.692912 
G1 X-15.927697 Y52.298956 
G1 X-16.393484 Y52.764744 
G1 X-17.002059 Y53.016822 
G1 X-17.176887 Y53.016822 
G1 X-17.313359 Y53.043969 
G1 X-17.441916 Y53.097219 
G1 X-17.557616 Y53.174525 
G1 X-17.656006 Y53.272916 
G1 X-21.095384 Y56.712294 
G1 X-21.172691 Y56.827994 
G1 X-21.225941 Y56.956550 
G1 X-21.253087 Y57.093022 
G1 X-21.253087 Y57.232175 
G1 X-21.225941 Y57.368647 
G1 X-21.172691 Y57.497203 
G1 X-21.095384 Y57.612903 
G1 X-20.996994 Y57.711294 
G1 X-20.881294 Y57.788600 
G1 X-20.752737 Y57.841850 
G1 X-20.616266 Y57.868997 
G1 X-1.954597 Y57.868997 
G1 X-1.818125 Y57.841850 
G1 X-1.689569 Y57.788600 
G1 X-1.573869 Y57.711294 
G1 X-1.475478 Y57.612903 
G1 X-0.873700 Y57.011125 
G1 X-0.796394 Y56.895425 
G1 X-0.743144 Y56.766869 
G1 X-0.715997 Y56.630397 
G1 X-0.715997 Y43.553319 
G1 X-0.743144 Y43.416844 
G1 X-0.796394 Y43.288288 
G1 X-0.872162 Y43.174894 
G1 X-0.972091 Y43.074200 
G1 X-1.087791 Y42.996894 
G1 X-1.216347 Y42.943644 
G1 X-1.352819 Y42.916497 
G1 X-1.491972 Y42.916497 
G1 X-1.628447 Y42.943644 
G1 X-2.210637 Y43.184797 
G1 X-2.869359 Y43.184797 
G1 X-3.482806 Y42.930700 
G1 X-3.531250 Y42.898331 
G1 X-3.589869 Y42.859159 
G1 X-3.718422 Y42.805906 
G1 X-3.786122 Y42.792441 
G1 X-3.854897 Y42.778756 
G1 X-3.923703 Y42.778753 
G1 X-3.994047 Y42.778750 
G1 X-4.060078 Y42.791884 
G1 X-4.130522 Y42.805894 
G1 X-4.177784 Y42.825469 
G1 X-4.259081 Y42.859138 
G1 X-4.374781 Y42.936441 
G1 X-4.412063 Y42.973719 
G1 X-5.020634 Y43.225797 
G1 X-5.679359 Y43.225797 
G1 X-6.287931 Y42.973719 
G1 X-6.753719 Y42.507931 
G1 X-7.005797 Y41.899359 
G1 X-7.005797 Y41.240637 
G1 X-6.701519 Y40.506050 
G1 X-6.674372 Y40.369575 
G1 X-6.674372 Y40.230422 
G1 X-6.699981 Y40.101684 
G1 X-6.709425 Y40.074863 
G1 X-7.005797 Y39.359359 
G1 X-7.005797 Y38.700637 
G1 X-6.986231 Y38.653400 
G1 X-6.965416 Y38.603150 
G1 X-6.932981 Y38.524853 
G1 X-6.919697 Y38.458075 
G1 X-6.905831 Y38.388378 
G1 X-6.905831 Y38.249219 
G0 Z1.000000 
G0 X-6.157675 Y40.624331 
G1 Z0.130000 F144   
G1 X-6.295666 Y40.762322 F200   
G1 X-6.410369 Y40.920203 
G1 X-6.498966 Y41.094081 
G1 X-6.559269 Y41.279678 
G1 X-6.589797 Y41.472422 
G1 X-6.589797 Y41.667575 
G1 X-6.559269 Y41.860319 
G1 X-6.498966 Y42.045916 
G1 X-6.410369 Y42.219794 
G1 X-6.295666 Y42.377675 
G1 X-6.157675 Y42.515666 
G1 X-5.999794 Y42.630369 
G1 X-5.825916 Y42.718966 
G1 X-5.640319 Y42.779269 
G1 X-5.447575 Y42.809797 
G1 X-5.252422 Y42.809797 
G1 X-5.059678 Y42.779269 
G1 X-4.874081 Y42.718966 
G1 X-4.700203 Y42.630369 
G1 X-4.542322 Y42.515666 
G1 X-4.404331 Y42.377675 
G1 X-4.289628 Y42.219794 
G1 X-4.201031 Y42.045916 
G1 X-4.140728 Y41.860319 
G1 X-4.110200 Y41.667575 
G1 X-4.110200 Y41.472422 
G1 X-4.140728 Y41.279678 
G1 X-4.201031 Y41.094081 
G1 X-4.289628 Y40.920203 
G1 X-4.404331 Y40.762322 
G1 X-4.542322 Y40.624331 
G1 X-4.700203 Y40.509628 
G1 X-4.874081 Y40.421031 
G1 X-5.059678 Y40.360728 
G1 X-5.252422 Y40.330200 
G1 X-5.447575 Y40.330200 
G1 X-5.640319 Y40.360728 
G1 X-5.825916 Y40.421031 
G1 X-5.999794 Y40.509628 
G1 X-6.157675 Y40.624331 
G0 Z1.000000 
G0 X-3.485666 Y40.721322 
G1 Z0.130000 F144   
G1 X-3.600369 Y40.879203 F200   
G1 X-3.688966 Y41.053081 
G1 X-3.749269 Y41.238678 
G1 X-3.779797 Y41.431422 
G1 X-3.779797 Y41.626575 
G1 X-3.749269 Y41.819319 
G1 X-3.688966 Y42.004916 
G1 X-3.600369 Y42.178794 
G1 X-3.485666 Y42.336675 
G1 X-3.347675 Y42.474666 
G1 X-3.189794 Y42.589369 
G1 X-3.015916 Y42.677966 
G1 X-2.830319 Y42.738269 
G1 X-2.637575 Y42.768797 
G1 X-2.442422 Y42.768797 
G1 X-2.249678 Y42.738269 
G1 X-2.064081 Y42.677966 
G1 X-1.890203 Y42.589369 
G1 X-1.732322 Y42.474666 
G1 X-1.594331 Y42.336675 
G1 X-1.479628 Y42.178794 
G1 X-1.391031 Y42.004916 
G1 X-1.330728 Y41.819319 
G1 X-1.300200 Y41.626575 
G1 X-1.300200 Y41.431422 
G1 X-1.330728 Y41.238678 
G1 X-1.391031 Y41.053081 
G1 X-1.479628 Y40.879203 
G1 X-1.594331 Y40.721322 
G1 X-1.732322 Y40.583331 
G1 X-1.890203 Y40.468628 
G1 X-2.064081 Y40.380031 
G1 X-2.249678 Y40.319728 
G1 X-2.442422 Y40.289200 
G1 X-2.637575 Y40.289200 
G1 X-2.830319 Y40.319728 
G1 X-3.015916 Y40.380031 
G1 X-3.189794 Y40.468628 
G1 X-3.347675 Y40.583331 
G1 X-3.485666 Y40.721322 
G0 Z1.000000 
G0 X-10.794253 Y45.068397 
G1 Z0.130000 F144   
G1 X-10.932244 Y44.930406 F200   
G1 X-11.090125 Y44.815703 
G1 X-11.264003 Y44.727106 
G1 X-11.449600 Y44.666803 
G1 X-11.642344 Y44.636275 
G1 X-11.837497 Y44.636275 
G1 X-12.030241 Y44.666803 
G1 X-12.215837 Y44.727106 
G1 X-12.389716 Y44.815703 
G1 X-12.547597 Y44.930406 
G1 X-12.685588 Y45.068397 
G1 X-12.800291 Y45.226278 
G1 X-12.888887 Y45.400156 
G1 X-12.949191 Y45.585753 
G1 X-12.979719 Y45.778497 
G1 X-12.979719 Y45.973650 
G1 X-12.963584 Y46.075509 
G1 X-15.314231 Y48.344744 
G1 X-15.437794 Y48.325172 
G1 X-15.632947 Y48.325172 
G1 X-15.825691 Y48.355700 
G1 X-16.011288 Y48.416003 
G1 X-16.185166 Y48.504600 
G1 X-16.343047 Y48.619303 
G1 X-16.481037 Y48.757294 
G1 X-16.595741 Y48.915175 
G1 X-16.684338 Y49.089053 
G1 X-16.744641 Y49.274650 
G1 X-16.775169 Y49.467394 
G1 X-16.775169 Y49.662547 
G1 X-16.744641 Y49.855291 
G1 X-16.684338 Y50.040887 
G1 X-16.595741 Y50.214766 
G1 X-16.481037 Y50.372647 
G1 X-16.343047 Y50.510638 
G1 X-16.185166 Y50.625341 
G1 X-16.011288 Y50.713938 
G1 X-15.825691 Y50.774241 
G1 X-15.632947 Y50.804769 
G1 X-15.437794 Y50.804769 
G1 X-15.245050 Y50.774241 
G1 X-15.059453 Y50.713938 
G1 X-14.885575 Y50.625341 
G1 X-14.727694 Y50.510638 
G1 X-14.589703 Y50.372647 
G1 X-14.475000 Y50.214766 
G1 X-14.386403 Y50.040887 
G1 X-14.326100 Y49.855291 
G1 X-14.295572 Y49.662547 
G1 X-14.295572 Y49.467394 
G1 X-14.315125 Y49.343941 
G1 X-11.983213 Y47.092791 
G1 X-11.837497 Y47.115872 
G1 X-11.642344 Y47.115872 
G1 X-11.449600 Y47.085344 
G1 X-11.264003 Y47.025041 
G1 X-11.090125 Y46.936444 
G1 X-10.932244 Y46.821741 
G1 X-10.794253 Y46.683750 
G1 X-10.679550 Y46.525869 
G1 X-10.590953 Y46.351991 
G1 X-10.530650 Y46.166394 
G1 X-10.500122 Y45.973650 
G1 X-10.500122 Y45.778497 
G1 X-10.530650 Y45.585753 
G1 X-10.590953 Y45.400156 
G1 X-10.679550 Y45.226278 
G1 X-10.794253 Y45.068397 
G0 Z1.000000 
G0 X-19.880253 Y45.068397 
G1 Z0.130000 F144   
G1 X-20.018244 Y44.930406 F200   
G1 X-20.176125 Y44.815703 
G1 X-20.350003 Y44.727106 
G1 X-20.535600 Y44.666803 
G1 X-20.728344 Y44.636275 
G1 X-20.923497 Y44.636275 
G1 X-21.116241 Y44.666803 
G1 X-21.301838 Y44.727106 
G1 X-21.475716 Y44.815703 
G1 X-21.633597 Y44.930406 
G1 X-21.771587 Y45.068397 
G1 X-21.886291 Y45.226278 
G1 X-21.974888 Y45.400156 
G1 X-22.035191 Y45.585753 
G1 X-22.065719 Y45.778497 
G1 X-22.065719 Y45.973650 
G1 X-22.046138 Y46.097281 
G1 X-24.287003 Y48.338113 
G1 X-24.446994 Y48.312772 
G1 X-24.642147 Y48.312772 
G1 X-24.834891 Y48.343300 
G1 X-25.020488 Y48.403603 
G1 X-25.194366 Y48.492200 
G1 X-25.352247 Y48.606903 
G1 X-25.490237 Y48.744894 
G1 X-25.604941 Y48.902775 
G1 X-25.693538 Y49.076653 
G1 X-25.753841 Y49.262250 
G1 X-25.784369 Y49.454994 
G1 X-25.784369 Y49.650147 
G1 X-25.753841 Y49.842891 
G1 X-25.693538 Y50.028487 
G1 X-25.604941 Y50.202366 
G1 X-25.490237 Y50.360247 
G1 X-25.352247 Y50.498238 
G1 X-25.194366 Y50.612941 
G1 X-25.020488 Y50.701538 
G1 X-24.834891 Y50.761841 
G1 X-24.642147 Y50.792369 
G1 X-24.446994 Y50.792369 
G1 X-24.254250 Y50.761841 
G1 X-24.068653 Y50.701538 
G1 X-23.894775 Y50.612941 
G1 X-23.736894 Y50.498238 
G1 X-23.598903 Y50.360247 
G1 X-23.484200 Y50.202366 
G1 X-23.395603 Y50.028487 
G1 X-23.335300 Y49.842891 
G1 X-23.304772 Y49.650147 
G1 X-23.304772 Y49.454994 
G1 X-23.318600 Y49.367703 
G1 X-21.047147 Y47.096288 
G1 X-20.923497 Y47.115872 
G1 X-20.728344 Y47.115872 
G1 X-20.535600 Y47.085344 
G1 X-20.350003 Y47.025041 
G1 X-20.176125 Y46.936444 
G1 X-20.018244 Y46.821741 
G1 X-19.880253 Y46.683750 
G1 X-19.765550 Y46.525869 
G1 X-19.676953 Y46.351991 
G1 X-19.616650 Y46.166394 
G1 X-19.586122 Y45.973650 
G1 X-19.586122 Y45.778497 
G1 X-19.616650 Y45.585753 
G1 X-19.676953 Y45.400156 
G1 X-19.765550 Y45.226278 
G1 X-19.880253 Y45.068397 
G0 Z1.000000 
G0 X-18.139100 Y50.415356 
G1 Z0.130000 F144   
G1 X-18.277091 Y50.553347 F200   
G1 X-18.391794 Y50.711228 
G1 X-18.480391 Y50.885106 
G1 X-18.540694 Y51.070703 
G1 X-18.571222 Y51.263447 
G1 X-18.571222 Y51.458600 
G1 X-18.551637 Y51.582241 
G1 X-22.435000 Y55.465600 
G1 X-29.618019 Y55.465600 
G1 X-29.560950 Y55.454250 
G1 X-29.432394 Y55.401000 
G1 X-29.316694 Y55.323694 
G1 X-26.561841 Y52.568838 
G1 X-26.438200 Y52.588422 
G1 X-26.243047 Y52.588422 
G1 X-26.050303 Y52.557894 
G1 X-25.864706 Y52.497591 
G1 X-25.690828 Y52.408994 
G1 X-25.532947 Y52.294291 
G1 X-25.394956 Y52.156300 
G1 X-25.280253 Y51.998419 
G1 X-25.191656 Y51.824541 
G1 X-25.131353 Y51.638944 
G1 X-25.100825 Y51.446200 
G1 X-25.100825 Y51.251047 
G1 X-25.131353 Y51.058303 
G1 X-25.191656 Y50.872706 
G1 X-25.280253 Y50.698828 
G1 X-25.394956 Y50.540947 
G1 X-25.532947 Y50.402956 
G1 X-25.690828 Y50.288253 
G1 X-25.864706 Y50.199656 
G1 X-26.050303 Y50.139353 
G1 X-26.243047 Y50.108825 
G1 X-26.438200 Y50.108825 
G1 X-26.630944 Y50.139353 
G1 X-26.816541 Y50.199656 
G1 X-26.990419 Y50.288253 
G1 X-27.148300 Y50.402956 
G1 X-27.286291 Y50.540947 
G1 X-27.400994 Y50.698828 
G1 X-27.489591 Y50.872706 
G1 X-27.549894 Y51.058303 
G1 X-27.580422 Y51.251047 
G1 X-27.580422 Y51.446200 
G1 X-27.560838 Y51.569841 
G1 X-30.059600 Y54.068600 
G1 X-37.227619 Y54.068600 
G1 X-37.170550 Y54.057250 
G1 X-37.041994 Y54.004000 
G1 X-36.926294 Y53.926694 
G1 X-35.569441 Y52.569837 
G1 X-35.445800 Y52.589422 
G1 X-35.250647 Y52.589422 
G1 X-35.057903 Y52.558894 
G1 X-34.872306 Y52.498591 
G1 X-34.698428 Y52.409994 
G1 X-34.540547 Y52.295291 
G1 X-34.402556 Y52.157300 
G1 X-34.287853 Y51.999419 
G1 X-34.199256 Y51.825541 
G1 X-34.138953 Y51.639944 
G1 X-34.108425 Y51.447200 
G1 X-34.108425 Y51.252047 
G1 X-34.138953 Y51.059303 
G1 X-34.199256 Y50.873706 
G1 X-34.287853 Y50.699828 
G1 X-34.402556 Y50.541947 
G1 X-34.540547 Y50.403956 
G1 X-34.698428 Y50.289253 
G1 X-34.872306 Y50.200656 
G1 X-35.057903 Y50.140353 
G1 X-35.250647 Y50.109825 
G1 X-35.445800 Y50.109825 
G1 X-35.638544 Y50.140353 
G1 X-35.824141 Y50.200656 
G1 X-35.998019 Y50.289253 
G1 X-36.155900 Y50.403956 
G1 X-36.293891 Y50.541947 
G1 X-36.408594 Y50.699828 
G1 X-36.497191 Y50.873706 
G1 X-36.557494 Y51.059303 
G1 X-36.588022 Y51.252047 
G1 X-36.588022 Y51.447200 
G1 X-36.568438 Y51.570841 
G1 X-37.669200 Y52.671600 
G1 X-46.609397 Y52.671600 
G1 X-47.592600 Y51.688397 
G1 X-47.592600 Y33.369422 
G1 X-47.619747 Y33.232950 
G1 X-47.672997 Y33.104394 
G1 X-47.750303 Y32.988694 
G1 X-47.848694 Y32.890303 
G1 X-52.417694 Y28.321303 
G1 X-52.533394 Y28.243997 
G1 X-52.664331 Y28.062322 
G1 X-52.802322 Y27.924331 
G1 X-52.960203 Y27.809628 
G1 X-53.134081 Y27.721031 
G1 X-53.319678 Y27.660728 
G1 X-53.512422 Y27.630200 
G1 X-53.707575 Y27.630200 
G1 X-53.900319 Y27.660728 
G1 X-54.085916 Y27.721031 
G1 X-54.259794 Y27.809628 
G1 X-54.417675 Y27.924331 
G1 X-54.555666 Y28.062322 
G1 X-54.599456 Y28.122600 
G1 X-55.368753 Y28.122600 
G1 X-55.442331 Y28.021322 
G1 X-55.580322 Y27.883331 
G1 X-55.738203 Y27.768628 
G1 X-55.912081 Y27.680031 
G1 X-56.097678 Y27.619728 
G1 X-56.290422 Y27.589200 
G1 X-56.485575 Y27.589200 
G1 X-56.678319 Y27.619728 
G1 X-56.863916 Y27.680031 
G1 X-57.037794 Y27.768628 
G1 X-57.195675 Y27.883331 
G1 X-57.333666 Y28.021322 
G1 X-57.448369 Y28.179203 
G1 X-57.536966 Y28.353081 
G1 X-57.597269 Y28.538678 
G1 X-57.627797 Y28.731422 
G1 X-57.627797 Y28.926575 
G1 X-57.597269 Y29.119319 
G1 X-57.536966 Y29.304916 
G1 X-57.448369 Y29.478794 
G1 X-57.333666 Y29.636675 
G1 X-57.195675 Y29.774666 
G1 X-57.037794 Y29.889369 
G1 X-56.863916 Y29.977966 
G1 X-56.678319 Y30.038269 
G1 X-56.485575 Y30.068797 
G1 X-56.290422 Y30.068797 
G1 X-56.097678 Y30.038269 
G1 X-55.912081 Y29.977966 
G1 X-55.738203 Y29.889369 
G1 X-55.580322 Y29.774666 
G1 X-55.442331 Y29.636675 
G1 X-55.368753 Y29.535397 
G1 X-54.659031 Y29.535397 
G1 X-54.555666 Y29.677675 
G1 X-54.417675 Y29.815666 
G1 X-54.259794 Y29.930369 
G1 X-54.085916 Y30.018966 
G1 X-53.900319 Y30.079269 
G1 X-53.707575 Y30.109797 
G1 X-53.512422 Y30.109797 
G1 X-53.319678 Y30.079269 
G1 X-53.134081 Y30.018966 
G1 X-52.960203 Y29.930369 
G1 X-52.871253 Y29.865744 
G1 X-49.005397 Y33.731600 
G1 X-49.005397 Y52.050575 
G1 X-48.978250 Y52.187047 
G1 X-48.925000 Y52.315603 
G1 X-48.847694 Y52.431303 
G1 X-47.450694 Y53.828303 
G1 X-47.352303 Y53.926694 
G1 X-47.236603 Y54.004000 
G1 X-47.108047 Y54.057250 
G1 X-47.050978 Y54.068600 
G1 X-47.217397 Y54.068600 
G1 X-49.089600 Y52.196397 
G1 X-49.089600 Y35.782422 
G1 X-49.116747 Y35.645950 
G1 X-49.169997 Y35.517394 
G1 X-49.247303 Y35.401694 
G1 X-49.345694 Y35.303303 
G1 X-52.477775 Y32.171225 
G1 X-52.549628 Y32.030203 
G1 X-52.664331 Y31.872322 
G1 X-52.802322 Y31.734331 
G1 X-52.960203 Y31.619628 
G1 X-53.134081 Y31.531031 
G1 X-53.319678 Y31.470728 
G1 X-53.512422 Y31.440200 
G1 X-53.707575 Y31.440200 
G1 X-53.900319 Y31.470728 
G1 X-54.085916 Y31.531031 
G1 X-54.259794 Y31.619628 
G1 X-54.417675 Y31.734331 
G1 X-54.555666 Y31.872322 
G1 X-54.629244 Y31.973600 
G1 X-55.338966 Y31.973600 
G1 X-55.442331 Y31.831322 
G1 X-55.580322 Y31.693331 
G1 X-55.738203 Y31.578628 
G1 X-55.912081 Y31.490031 
G1 X-56.097678 Y31.429728 
G1 X-56.290422 Y31.399200 
G1 X-56.485575 Y31.399200 
G1 X-56.678319 Y31.429728 
G1 X-56.863916 Y31.490031 
G1 X-57.037794 Y31.578628 
G1 X-57.195675 Y31.693331 
G1 X-57.333666 Y31.831322 
G1 X-57.448369 Y31.989203 
G1 X-57.536966 Y32.163081 
G1 X-57.597269 Y32.348678 
G1 X-57.627797 Y32.541422 
G1 X-57.627797 Y32.736575 
G1 X-57.597269 Y32.929319 
G1 X-57.536966 Y33.114916 
G1 X-57.448369 Y33.288794 
G1 X-57.333666 Y33.446675 
G1 X-57.195675 Y33.584666 
G1 X-57.037794 Y33.699369 
G1 X-56.863916 Y33.787966 
G1 X-56.678319 Y33.848269 
G1 X-56.485575 Y33.878797 
G1 X-56.290422 Y33.878797 
G1 X-56.097678 Y33.848269 
G1 X-55.912081 Y33.787966 
G1 X-55.738203 Y33.699369 
G1 X-55.580322 Y33.584666 
G1 X-55.442331 Y33.446675 
G1 X-55.398541 Y33.386397 
G1 X-54.629244 Y33.386397 
G1 X-54.555666 Y33.487675 
G1 X-54.417675 Y33.625666 
G1 X-54.259794 Y33.740369 
G1 X-54.085916 Y33.828966 
G1 X-53.900319 Y33.889269 
G1 X-53.707575 Y33.919797 
G1 X-53.512422 Y33.919797 
G1 X-53.319678 Y33.889269 
G1 X-53.134081 Y33.828966 
G1 X-52.960203 Y33.740369 
G1 X-52.929172 Y33.717822 
G1 X-50.502397 Y36.144600 
G1 X-50.502397 Y36.624175 
G1 X-50.539997 Y36.533394 
G1 X-50.617303 Y36.417694 
G1 X-50.715694 Y36.319303 
G1 X-52.363694 Y34.671303 
G1 X-52.479394 Y34.593997 
G1 X-52.555138 Y34.562625 
G1 X-52.664331 Y34.412322 
G1 X-52.802322 Y34.274331 
G1 X-52.960203 Y34.159628 
G1 X-53.134081 Y34.071031 
G1 X-53.319678 Y34.010728 
G1 X-53.512422 Y33.980200 
G1 X-53.707575 Y33.980200 
G1 X-53.900319 Y34.010728 
G1 X-54.085916 Y34.071031 
G1 X-54.259794 Y34.159628 
G1 X-54.417675 Y34.274331 
G1 X-54.555666 Y34.412322 
G1 X-54.629244 Y34.513600 
G1 X-55.338966 Y34.513600 
G1 X-55.442331 Y34.371322 
G1 X-55.580322 Y34.233331 
G1 X-55.738203 Y34.118628 
G1 X-55.912081 Y34.030031 
G1 X-56.097678 Y33.969728 
G1 X-56.290422 Y33.939200 
G1 X-56.485575 Y33.939200 
G1 X-56.678319 Y33.969728 
G1 X-56.863916 Y34.030031 
G1 X-57.037794 Y34.118628 
G1 X-57.195675 Y34.233331 
G1 X-57.333666 Y34.371322 
G1 X-57.448369 Y34.529203 
G1 X-57.536966 Y34.703081 
G1 X-57.597269 Y34.888678 
G1 X-57.627797 Y35.081422 
G1 X-57.627797 Y35.276575 
G1 X-57.597269 Y35.469319 
G1 X-57.536966 Y35.654916 
G1 X-57.448369 Y35.828794 
G1 X-57.333666 Y35.986675 
G1 X-57.195675 Y36.124666 
G1 X-57.037794 Y36.239369 
G1 X-56.863916 Y36.327966 
G1 X-56.678319 Y36.388269 
G1 X-56.485575 Y36.418797 
G1 X-56.290422 Y36.418797 
G1 X-56.097678 Y36.388269 
G1 X-55.912081 Y36.327966 
G1 X-55.738203 Y36.239369 
G1 X-55.580322 Y36.124666 
G1 X-55.442331 Y35.986675 
G1 X-55.398541 Y35.926397 
G1 X-54.629244 Y35.926397 
G1 X-54.555666 Y36.027675 
G1 X-54.417675 Y36.165666 
G1 X-54.259794 Y36.280369 
G1 X-54.085916 Y36.368966 
G1 X-53.900319 Y36.429269 
G1 X-53.707575 Y36.459797 
G1 X-53.512422 Y36.459797 
G1 X-53.319678 Y36.429269 
G1 X-53.134081 Y36.368966 
G1 X-52.960203 Y36.280369 
G1 X-52.839975 Y36.193019 
G1 X-51.872397 Y37.160600 
G1 X-51.872397 Y53.193575 
G1 X-51.845250 Y53.330047 
G1 X-51.792000 Y53.458603 
G1 X-51.714694 Y53.574303 
G1 X-48.666694 Y56.622300 
G1 X-48.568303 Y56.720694 
G1 X-48.452603 Y56.798000 
G1 X-48.324047 Y56.851250 
G1 X-48.187575 Y56.878397 
G1 X-22.072822 Y56.878397 
G1 X-21.936350 Y56.851250 
G1 X-21.807794 Y56.798000 
G1 X-21.692094 Y56.720694 
G1 X-21.593703 Y56.622303 
G1 X-17.552641 Y52.581238 
G1 X-17.429000 Y52.600822 
G1 X-17.233847 Y52.600822 
G1 X-17.041103 Y52.570294 
G1 X-16.855506 Y52.509991 
G1 X-16.681628 Y52.421394 
G1 X-16.523747 Y52.306691 
G1 X-16.385756 Y52.168700 
G1 X-16.271053 Y52.010819 
G1 X-16.182456 Y51.836941 
G1 X-16.122153 Y51.651344 
G1 X-16.091625 Y51.458600 
G1 X-16.091625 Y51.263447 
G1 X-16.122153 Y51.070703 
G1 X-16.182456 Y50.885106 
G1 X-16.271053 Y50.711228 
G1 X-16.385756 Y50.553347 
G1 X-16.523747 Y50.415356 
G1 X-16.681628 Y50.300653 
G1 X-16.855506 Y50.212056 
G1 X-17.041103 Y50.151753 
G1 X-17.233847 Y50.121225 
G1 X-17.429000 Y50.121225 
G1 X-17.621744 Y50.151753 
G1 X-17.807341 Y50.212056 
G1 X-17.981219 Y50.300653 
G1 X-18.139100 Y50.415356 
G0 Z1.000000 
G0 X-29.066244 Y46.821741 
G1 Z0.130000 F144   
G1 X-28.928253 Y46.683750 F200   
G1 X-28.813550 Y46.525869 
G1 X-28.724953 Y46.351991 
G1 X-28.664650 Y46.166394 
G1 X-28.634122 Y45.973650 
G1 X-28.634122 Y45.778497 
G1 X-28.664650 Y45.585753 
G1 X-28.724953 Y45.400156 
G1 X-28.813550 Y45.226278 
G1 X-28.928253 Y45.068397 
G1 X-29.066244 Y44.930406 
G1 X-29.224125 Y44.815703 
G1 X-29.398003 Y44.727106 
G1 X-29.583600 Y44.666803 
G1 X-29.776344 Y44.636275 
G1 X-29.971497 Y44.636275 
G1 X-30.164241 Y44.666803 
G1 X-30.349837 Y44.727106 
G1 X-30.523716 Y44.815703 
G1 X-30.681597 Y44.930406 
G1 X-30.819588 Y45.068397 
G1 X-30.934291 Y45.226278 
G1 X-31.022887 Y45.400156 
G1 X-31.083191 Y45.585753 
G1 X-31.113719 Y45.778497 
G1 X-31.113719 Y45.973650 
G1 X-31.094137 Y46.097281 
G1 X-33.330344 Y48.333453 
G1 X-33.454594 Y48.313772 
G1 X-33.649747 Y48.313772 
G1 X-33.842491 Y48.344300 
G1 X-34.028087 Y48.404603 
G1 X-34.201966 Y48.493200 
G1 X-34.359847 Y48.607903 
G1 X-34.497838 Y48.745894 
G1 X-34.612541 Y48.903775 
G1 X-34.701138 Y49.077653 
G1 X-34.761441 Y49.263250 
G1 X-34.791969 Y49.455994 
G1 X-34.791969 Y49.651147 
G1 X-34.761441 Y49.843891 
G1 X-34.701138 Y50.029488 
G1 X-34.612541 Y50.203366 
G1 X-34.497838 Y50.361247 
G1 X-34.359847 Y50.499237 
G1 X-34.201966 Y50.613941 
G1 X-34.028087 Y50.702537 
G1 X-33.842491 Y50.762841 
G1 X-33.649747 Y50.793369 
G1 X-33.454594 Y50.793369 
G1 X-33.261850 Y50.762841 
G1 X-33.076253 Y50.702537 
G1 X-32.902375 Y50.613941 
G1 X-32.744494 Y50.499237 
G1 X-32.606503 Y50.361247 
G1 X-32.491800 Y50.203366 
G1 X-32.403203 Y50.029488 
G1 X-32.342900 Y49.843891 
G1 X-32.312372 Y49.651147 
G1 X-32.312372 Y49.455994 
G1 X-32.331859 Y49.332963 
G1 X-30.095147 Y47.096288 
G1 X-29.971497 Y47.115872 
G1 X-29.776344 Y47.115872 
G1 X-29.583600 Y47.085344 
G1 X-29.398003 Y47.025041 
G1 X-29.224125 Y46.936444 
G1 X-29.066244 Y46.821741 
G0 Z1.000000 
G0 X-28.211072 Y38.844397 
G1 Z0.130000 F144   
G1 X-28.188163 Y38.853887 F200   
G1 X-28.044325 Y38.882497 
G1 X-27.897672 Y38.882497 
G1 X-27.753834 Y38.853887 
G1 X-27.618347 Y38.797766 
G1 X-27.496406 Y38.716287 
G1 X-27.392709 Y38.612591 
G1 X-27.311231 Y38.490650 
G1 X-27.255109 Y38.355162 
G1 X-27.226500 Y38.211325 
G1 X-27.226500 Y38.064672 
G1 X-27.255109 Y37.920834 
G1 X-27.311231 Y37.785347 
G1 X-27.392709 Y37.663406 
G1 X-27.496406 Y37.559709 
G1 X-27.618347 Y37.478231 
G1 X-27.753834 Y37.422109 
G1 X-27.897672 Y37.393500 
G1 X-28.044325 Y37.393500 
G1 X-28.188163 Y37.422109 
G1 X-41.579397 Y37.431600 
G1 X-42.473600 Y36.537397 
G1 X-42.473600 Y32.950422 
G1 X-42.500747 Y32.813950 
G1 X-42.553997 Y32.685394 
G1 X-42.631303 Y32.569694 
G1 X-42.729694 Y32.471303 
G1 X-45.013600 Y30.187397 
G1 X-45.013600 Y27.774422 
G1 X-45.040747 Y27.637950 
G1 X-45.093997 Y27.509394 
G1 X-45.171303 Y27.393694 
G1 X-45.269694 Y27.295303 
G1 X-51.863694 Y20.701303 
G1 X-51.979394 Y20.623997 
G1 X-52.107950 Y20.570747 
G1 X-52.244422 Y20.543600 
G1 X-52.590753 Y20.543600 
G1 X-52.664331 Y20.442322 
G1 X-52.802322 Y20.304331 
G1 X-52.960203 Y20.189628 
G1 X-53.134081 Y20.101031 
G1 X-53.319678 Y20.040728 
G1 X-53.512422 Y20.010200 
G1 X-53.707575 Y20.010200 
G1 X-53.900319 Y20.040728 
G1 X-54.085916 Y20.101031 
G1 X-54.259794 Y20.189628 
G1 X-54.417675 Y20.304331 
G1 X-54.555666 Y20.442322 
G1 X-54.599456 Y20.502600 
G1 X-55.368753 Y20.502600 
G1 X-55.442331 Y20.401322 
G1 X-55.580322 Y20.263331 
G1 X-55.738203 Y20.148628 
G1 X-55.912081 Y20.060031 
G1 X-56.097678 Y19.999728 
G1 X-56.290422 Y19.969200 
G1 X-56.485575 Y19.969200 
G1 X-56.678319 Y19.999728 
G1 X-56.863916 Y20.060031 
G1 X-57.037794 Y20.148628 
G1 X-57.195675 Y20.263331 
G1 X-57.333666 Y20.401322 
G1 X-57.448369 Y20.559203 
G1 X-57.536966 Y20.733081 
G1 X-57.597269 Y20.918678 
G1 X-57.627797 Y21.111422 
G1 X-57.627797 Y21.306575 
G1 X-57.597269 Y21.499319 
G1 X-57.536966 Y21.684916 
G1 X-57.448369 Y21.858794 
G1 X-57.333666 Y22.016675 
G1 X-57.195675 Y22.154666 
G1 X-57.037794 Y22.269369 
G1 X-56.863916 Y22.357966 
G1 X-56.678319 Y22.418269 
G1 X-56.485575 Y22.448797 
G1 X-56.290422 Y22.448797 
G1 X-56.097678 Y22.418269 
G1 X-55.912081 Y22.357966 
G1 X-55.738203 Y22.269369 
G1 X-55.580322 Y22.154666 
G1 X-55.442331 Y22.016675 
G1 X-55.368753 Y21.915397 
G1 X-54.659031 Y21.915397 
G1 X-54.555666 Y22.057675 
G1 X-54.417675 Y22.195666 
G1 X-54.259794 Y22.310369 
G1 X-54.085916 Y22.398966 
G1 X-53.900319 Y22.459269 
G1 X-53.707575 Y22.489797 
G1 X-53.512422 Y22.489797 
G1 X-53.319678 Y22.459269 
G1 X-53.134081 Y22.398966 
G1 X-52.960203 Y22.310369 
G1 X-52.802322 Y22.195666 
G1 X-52.664331 Y22.057675 
G1 X-52.597422 Y21.965575 
G1 X-46.426397 Y28.136600 
G1 X-46.426397 Y30.549575 
G1 X-46.399250 Y30.686047 
G1 X-46.346000 Y30.814603 
G1 X-46.268694 Y30.930303 
G1 X-43.886397 Y33.312600 
G1 X-43.886397 Y36.899575 
G1 X-43.859250 Y37.036047 
G1 X-43.806000 Y37.164603 
G1 X-43.728694 Y37.280303 
G1 X-42.420694 Y38.588303 
G1 X-42.322303 Y38.686694 
G1 X-42.206603 Y38.764000 
G1 X-42.078047 Y38.817250 
G1 X-41.941575 Y38.844397 
G1 X-28.211072 Y38.844397 
G0 Z1.000000 
G0 X-28.228269 Y36.988447 
G1 Z0.130000 F144   
G1 X-28.201834 Y36.977497 F200   
G1 X-27.601628 Y36.977497 
G1 X-27.465153 Y36.950350 
G1 X-27.336597 Y36.897100 
G1 X-27.220900 Y36.819794 
G1 X-27.122509 Y36.721403 
G1 X-27.052875 Y36.617181 
G1 X-26.991953 Y36.477147 
G1 X-26.964806 Y36.340675 
G1 X-26.964806 Y36.201522 
G1 X-26.991953 Y36.065047 
G1 X-27.045203 Y35.936491 
G1 X-27.122509 Y35.820794 
G1 X-30.071228 Y32.872081 
G1 X-30.535522 Y32.407784 
G1 X-30.706397 Y31.995259 
G1 X-30.706397 Y29.532800 
G1 X-30.706397 Y29.463978 
G1 X-30.706397 Y29.393659 
G1 X-30.726059 Y29.294812 
G1 X-30.733544 Y29.257188 
G1 X-30.771403 Y29.165788 
G1 X-30.786794 Y29.128631 
G1 X-30.830884 Y29.062647 
G1 X-30.864100 Y29.012931 
G1 X-30.912547 Y28.964488 
G1 X-30.962491 Y28.914541 
G1 X-31.038272 Y28.863906 
G1 X-31.078191 Y28.837234 
G1 X-31.177166 Y28.796238 
G1 X-31.206747 Y28.783984 
G1 X-31.293500 Y28.766728 
G1 X-31.343219 Y28.756837 
G1 X-31.412053 Y28.756837 
G1 X-31.482372 Y28.756837 
G1 X-31.573569 Y28.774978 
G1 X-32.142125 Y28.774978 
G1 X-32.645650 Y28.566409 
G1 X-33.031041 Y28.181019 
G1 X-33.239609 Y27.677494 
G1 X-33.239609 Y27.132469 
G1 X-33.072425 Y26.728847 
G1 X-33.048963 Y26.672206 
G1 X-33.019175 Y26.600297 
G1 X-33.005891 Y26.533509 
G1 X-32.992028 Y26.463822 
G1 X-32.992028 Y26.324672 
G1 X-32.992091 Y19.875203 
G1 X-32.992091 Y19.824731 
G1 X-32.992091 Y19.736056 
G1 X-33.019238 Y19.599581 
G1 X-33.030197 Y19.573125 
G1 X-33.030197 Y19.111456 
G1 X-32.804431 Y18.566416 
G1 X-32.777284 Y18.429941 
G1 X-32.777284 Y18.290788 
G1 X-32.802894 Y18.162050 
G1 X-32.857681 Y18.025759 
G1 X-32.934987 Y17.910059 
G1 X-33.031841 Y17.813209 
G1 X-33.149075 Y17.734362 
G1 X-33.277631 Y17.681113 
G1 X-33.657366 Y17.523822 
G1 X-33.983822 Y17.197369 
G1 X-34.160497 Y16.770837 
G1 X-34.160497 Y16.309156 
G1 X-33.983822 Y15.882625 
G1 X-33.550100 Y15.448906 
G1 X-33.472794 Y15.333206 
G1 X-33.419544 Y15.204650 
G1 X-33.392397 Y15.068178 
G1 X-33.392397 Y12.450619 
G1 X-33.419544 Y12.314147 
G1 X-33.472794 Y12.185591 
G1 X-33.550100 Y12.069891 
G1 X-33.648491 Y11.971500 
G1 X-33.764191 Y11.894194 
G1 X-33.800200 Y11.879278 
G1 X-33.800200 Y9.940700 
G1 X-33.820644 Y9.864403 
G1 X-33.860141 Y9.795994 
G1 X-33.915994 Y9.740141 
G1 X-33.984403 Y9.700644 
G1 X-34.060700 Y9.680200 
G1 X-35.084516 Y9.680200 
G1 X-35.067278 Y9.654403 
G1 X-35.014028 Y9.525850 
G1 X-34.988422 Y9.397109 
G1 X-34.986881 Y9.250222 
G1 X-35.014028 Y9.113750 
G1 X-35.305797 Y8.409359 
G1 X-35.305797 Y8.234534 
G1 X-35.332944 Y8.098062 
G1 X-35.386194 Y7.969506 
G1 X-35.463500 Y7.853806 
G1 X-35.561891 Y7.755416 
G1 X-36.037206 Y7.280100 
G1 X-36.152906 Y7.202794 
G1 X-36.281463 Y7.149544 
G1 X-36.417934 Y7.122397 
G1 X-38.366366 Y7.122397 
G1 X-38.412728 Y7.119359 
G1 X-38.459063 Y7.122397 
G1 X-38.504622 Y7.131459 
G1 X-38.550684 Y7.137525 
G1 X-38.595534 Y7.149544 
G1 X-38.638450 Y7.167322 
G1 X-38.682447 Y7.182256 
G1 X-38.724091 Y7.202794 
G1 X-38.762697 Y7.228591 
G1 X-38.802953 Y7.251831 
G1 X-38.839791 Y7.280100 
G1 X-38.872644 Y7.312956 
G1 X-38.907566 Y7.343581 
G1 X-38.938181 Y7.378491 
G1 X-38.963997 Y7.417131 
G1 X-38.992272 Y7.453978 
G1 X-39.015487 Y7.494191 
G1 X-39.033259 Y7.537100 
G1 X-39.053812 Y7.578775 
G1 X-39.068737 Y7.622747 
G1 X-39.077797 Y7.668300 
G1 X-39.089825 Y7.713184 
G1 X-39.095884 Y7.759219 
G1 X-39.095884 Y7.805675 
G1 X-39.098922 Y7.852037 
G1 X-39.095884 Y7.898372 
G1 X-39.086822 Y7.943931 
G1 X-39.080756 Y7.989994 
G1 X-39.068737 Y8.034844 
G1 X-39.050959 Y8.077759 
G1 X-39.036025 Y8.121756 
G1 X-39.015487 Y8.163400 
G1 X-38.989681 Y8.202019 
G1 X-38.965884 Y8.243237 
G1 X-38.743997 Y9.071331 
G1 X-38.743997 Y9.928662 
G1 X-38.965888 Y10.756766 
G1 X-39.394547 Y11.499228 
G1 X-40.000766 Y12.105447 
G1 X-40.743228 Y12.534106 
G1 X-41.571331 Y12.755997 
G1 X-42.428663 Y12.755997 
G1 X-43.256766 Y12.534106 
G1 X-43.999228 Y12.105447 
G1 X-44.605447 Y11.499228 
G1 X-45.034106 Y10.756766 
G1 X-45.255997 Y9.928662 
G1 X-45.255997 Y9.071331 
G1 X-45.034109 Y8.243234 
G1 X-45.010312 Y8.202016 
G1 X-44.984506 Y8.163400 
G1 X-44.963969 Y8.121756 
G1 X-44.949034 Y8.077756 
G1 X-44.931256 Y8.034844 
G1 X-44.919238 Y7.989994 
G1 X-44.913175 Y7.943931 
G1 X-44.904109 Y7.898372 
G1 X-44.901072 Y7.852037 
G1 X-44.904109 Y7.805672 
G1 X-44.904109 Y7.759219 
G1 X-44.910169 Y7.713184 
G1 X-44.922197 Y7.668300 
G1 X-44.931256 Y7.622747 
G1 X-44.946181 Y7.578775 
G1 X-44.966734 Y7.537097 
G1 X-44.984506 Y7.494191 
G1 X-45.007722 Y7.453978 
G1 X-45.035997 Y7.417128 
G1 X-45.061813 Y7.378491 
G1 X-45.092428 Y7.343581 
G1 X-45.127353 Y7.312953 
G1 X-45.160203 Y7.280100 
G1 X-45.197041 Y7.251831 
G1 X-45.237297 Y7.228591 
G1 X-45.275903 Y7.202794 
G1 X-45.317547 Y7.182256 
G1 X-45.361547 Y7.167322 
G1 X-45.404459 Y7.149544 
G1 X-45.449309 Y7.137525 
G1 X-45.495372 Y7.131462 
G1 X-45.540931 Y7.122397 
G1 X-45.587266 Y7.119359 
G1 X-45.633631 Y7.122397 
G1 X-46.606241 Y7.122397 
G1 X-46.742716 Y7.149544 
G1 X-46.769153 Y7.160497 
G1 X-47.230837 Y7.160497 
G1 X-47.657366 Y6.983822 
G1 X-47.990241 Y6.650947 
G1 X-48.079566 Y6.561619 
G1 X-48.204328 Y6.475247 
G1 X-48.332884 Y6.421997 
G1 X-48.469359 Y6.394850 
G1 X-48.608513 Y6.394850 
G1 X-48.737250 Y6.420459 
G1 X-48.873541 Y6.475244 
G1 X-48.989238 Y6.552550 
G1 X-49.087631 Y6.650944 
G1 X-50.147894 Y7.711206 
G1 X-50.225200 Y7.826906 
G1 X-50.278450 Y7.955463 
G1 X-50.305597 Y8.091934 
G1 X-50.305597 Y15.501259 
G1 X-50.476472 Y15.913784 
G1 X-50.940759 Y16.378072 
G1 X-51.676381 Y17.113694 
G1 X-51.753687 Y17.229394 
G1 X-51.806937 Y17.357950 
G1 X-51.834084 Y17.494422 
G1 X-51.834084 Y17.633575 
G1 X-51.806937 Y17.770047 
G1 X-51.753687 Y17.898603 
G1 X-51.676381 Y18.014303 
G1 X-51.577991 Y18.112694 
G1 X-45.172619 Y24.518066 
G1 X-45.056919 Y24.595372 
G1 X-44.928362 Y24.648622 
G1 X-44.791891 Y24.675769 
G1 X-44.652738 Y24.675769 
G1 X-44.516266 Y24.648622 
G1 X-44.387709 Y24.595372 
G1 X-44.272009 Y24.518066 
G1 X-44.173619 Y24.419675 
G1 X-44.096313 Y24.303975 
G1 X-44.043062 Y24.175419 
G1 X-44.015916 Y24.038947 
G1 X-44.015916 Y23.540359 
G1 X-43.807347 Y23.036834 
G1 X-43.421956 Y22.651444 
G1 X-42.918431 Y22.442875 
G1 X-42.373400 Y22.442875 
G1 X-41.869872 Y22.651444 
G1 X-41.484484 Y23.036834 
G1 X-41.275916 Y23.540359 
G1 X-41.275916 Y23.602106 
G1 X-41.248769 Y23.738578 
G1 X-41.195519 Y23.867134 
G1 X-41.118212 Y23.982834 
G1 X-41.019822 Y24.081225 
G1 X-40.904122 Y24.158531 
G1 X-40.775566 Y24.211781 
G1 X-40.639094 Y24.238928 
G1 X-40.577350 Y24.238928 
G1 X-40.073822 Y24.447497 
G1 X-39.688434 Y24.832884 
G1 X-39.479866 Y25.336413 
G1 X-39.479866 Y25.881444 
G1 X-39.688434 Y26.384972 
G1 X-40.073825 Y26.770363 
G1 X-40.477488 Y26.937562 
G1 X-40.595322 Y26.986372 
G1 X-40.721747 Y27.068119 
G1 X-40.818597 Y27.164972 
G1 X-41.227794 Y27.574166 
G1 X-41.305100 Y27.689866 
G1 X-41.358350 Y27.818422 
G1 X-41.385497 Y27.954894 
G1 X-41.385497 Y28.787363 
G1 X-41.645306 Y29.414603 
G1 X-42.125388 Y29.894684 
G1 X-42.752628 Y30.154494 
G1 X-42.822369 Y30.154494 
G1 X-42.958844 Y30.181641 
G1 X-43.087400 Y30.234891 
G1 X-43.200794 Y30.310659 
G1 X-43.301488 Y30.410587 
G1 X-43.378797 Y30.526287 
G1 X-43.431406 Y30.653306 
G1 X-43.459191 Y30.791316 
G1 X-43.459191 Y30.930469 
G1 X-43.432044 Y31.066944 
G1 X-43.378794 Y31.195500 
G1 X-43.303025 Y31.308894 
G1 X-43.203097 Y31.409588 
G1 X-42.594366 Y32.018316 
G1 X-42.228472 Y32.384206 
G1 X-42.057597 Y32.796734 
G1 X-42.057597 Y36.142059 
G1 X-42.030450 Y36.278531 
G1 X-41.977200 Y36.407088 
G1 X-41.899894 Y36.522787 
G1 X-41.564788 Y36.857894 
G1 X-41.449087 Y36.935200 
G1 X-41.320531 Y36.988450 
G1 X-41.184059 Y37.015597 
G1 X-37.344878 Y37.015597 
G1 X-37.208403 Y36.988450 
G1 X-37.079850 Y36.935200 
G1 X-37.034431 Y36.904850 
G1 X-36.964153 Y36.857894 
G1 X-36.865763 Y36.759503 
G1 X-36.788453 Y36.643800 
G1 X-36.768809 Y36.596369 
G1 X-36.584316 Y36.735919 
G1 X-36.403316 Y36.828144 
G1 X-36.210113 Y36.890919 
G1 X-36.009469 Y36.922697 
G1 X-35.806322 Y36.922697 
G1 X-35.605678 Y36.890919 
G1 X-35.412475 Y36.828144 
G1 X-35.231475 Y36.735919 
G1 X-35.067125 Y36.616512 
G1 X-35.027334 Y36.643800 
G1 X-34.950028 Y36.759500 
G1 X-34.851634 Y36.857894 
G1 X-34.783200 Y36.903619 
G1 X-34.735937 Y36.935200 
G1 X-34.607384 Y36.988450 
G1 X-34.470909 Y37.015597 
G1 X-28.364741 Y37.015597 
G1 X-28.284841 Y36.999700 
G1 X-28.228278 Y36.988450 
G0 Z1.000000 
G0 X-27.076512 Y28.788666 
G1 Z0.130000 F144   
G1 X-26.932869 Y28.932309 F200   
G1 X-26.768519 Y29.051716 
G1 X-26.587519 Y29.143941 
G1 X-26.394316 Y29.206716 
G1 X-26.193672 Y29.238494 
G1 X-25.990525 Y29.238494 
G1 X-25.789881 Y29.206716 
G1 X-25.596678 Y29.143941 
G1 X-25.415678 Y29.051716 
G1 X-25.251328 Y28.932309 
G1 X-25.107684 Y28.788666 
G1 X-24.988278 Y28.624316 
G1 X-24.896053 Y28.443316 
G1 X-24.833278 Y28.250113 
G1 X-24.801500 Y28.049469 
G1 X-24.801500 Y27.846322 
G1 X-24.833278 Y27.645678 
G1 X-24.896053 Y27.452475 
G1 X-24.988278 Y27.271475 
G1 X-25.107684 Y27.107125 
G1 X-25.251328 Y26.963481 
G1 X-25.415678 Y26.844075 
G1 X-25.596678 Y26.751850 
G1 X-25.789881 Y26.689075 
G1 X-25.990525 Y26.657297 
G1 X-26.193672 Y26.657297 
G1 X-26.394316 Y26.689075 
G1 X-26.587519 Y26.751850 
G1 X-26.768519 Y26.844075 
G1 X-26.932869 Y26.963481 
G1 X-27.076512 Y27.107125 
G1 X-27.195919 Y27.271475 
G1 X-27.288144 Y27.452475 
G1 X-27.350919 Y27.645678 
G1 X-27.382697 Y27.846322 
G1 X-27.382697 Y28.049469 
G1 X-27.350919 Y28.250113 
G1 X-27.288144 Y28.443316 
G1 X-27.195919 Y28.624316 
G1 X-27.076512 Y28.788666 
G0 Z1.000000 
G0 X-31.261472 Y28.146000 
G1 Z0.130000 F144   
G1 X-31.128591 Y28.013119 F200   
G1 X-31.024188 Y27.856869 
G1 X-30.952275 Y27.683253 
G1 X-30.915613 Y27.498941 
G1 X-30.915613 Y27.311019 
G1 X-30.952275 Y27.126706 
G1 X-31.024188 Y26.953091 
G1 X-31.128591 Y26.796841 
G1 X-31.163228 Y26.762206 
G1 X-31.163297 Y19.582366 
G1 X-31.125200 Y19.415625 
G1 X-31.125200 Y19.268972 
G1 X-31.153809 Y19.125134 
G1 X-31.209931 Y18.989647 
G1 X-31.291409 Y18.867706 
G1 X-31.395106 Y18.764009 
G1 X-31.517047 Y18.682531 
G1 X-31.652534 Y18.626409 
G1 X-31.796372 Y18.597800 
G1 X-31.943025 Y18.597800 
G1 X-32.086863 Y18.626409 
G1 X-32.222350 Y18.682531 
G1 X-32.344291 Y18.764009 
G1 X-32.447988 Y18.867706 
G1 X-32.529466 Y18.989647 
G1 X-32.585588 Y19.125134 
G1 X-32.614197 Y19.268972 
G1 X-32.614197 Y19.415625 
G1 X-32.585588 Y19.559462 
G1 X-32.576025 Y26.762238 
G1 X-32.610631 Y26.796841 
G1 X-32.715034 Y26.953091 
G1 X-32.786947 Y27.126706 
G1 X-32.823609 Y27.311019 
G1 X-32.823609 Y27.498941 
G1 X-32.786947 Y27.683253 
G1 X-32.715034 Y27.856869 
G1 X-32.610631 Y28.013119 
G1 X-32.477750 Y28.146000 
G1 X-32.321500 Y28.250403 
G1 X-32.147884 Y28.322316 
G1 X-31.963572 Y28.358978 
G1 X-31.775650 Y28.358978 
G1 X-31.591338 Y28.322316 
G1 X-31.417722 Y28.250403 
G1 X-31.261472 Y28.146000 
G0 Z1.000000 
G0 X-34.685669 Y29.835650 
G1 Z0.130000 F144   
G1 X-34.300281 Y30.221038 F200   
G1 X-34.091712 Y30.724566 
G1 X-34.091712 Y31.269597 
G1 X-34.300281 Y31.773125 
G1 X-34.685669 Y32.158513 
G1 X-35.189197 Y32.367081 
G1 X-35.734228 Y32.367081 
G1 X-36.237756 Y32.158513 
G1 X-36.623144 Y31.773125 
G1 X-36.831713 Y31.269597 
G1 X-36.831713 Y30.724566 
G1 X-36.623144 Y30.221038 
G1 X-36.237756 Y29.835650 
G1 X-35.734228 Y29.627081 
G1 X-35.189197 Y29.627081 
G1 X-34.685669 Y29.835650 
G0 Z1.000000 
G0 X-34.720694 Y30.388944 
G1 Z0.130000 F144   
G1 X-34.853575 Y30.256062 F200   
G1 X-35.009825 Y30.151659 
G1 X-35.183441 Y30.079747 
G1 X-35.367753 Y30.043084 
G1 X-35.555675 Y30.043084 
G1 X-35.739987 Y30.079747 
G1 X-35.913603 Y30.151659 
G1 X-36.069853 Y30.256062 
G1 X-36.202734 Y30.388944 
G1 X-36.307138 Y30.545194 
G1 X-36.379050 Y30.718809 
G1 X-36.415712 Y30.903122 
G1 X-36.415712 Y31.091044 
G1 X-36.379050 Y31.275356 
G1 X-36.307138 Y31.448972 
G1 X-36.202734 Y31.605222 
G1 X-36.069853 Y31.738103 
G1 X-35.913603 Y31.842506 
G1 X-35.739987 Y31.914419 
G1 X-35.555675 Y31.951081 
G1 X-35.367753 Y31.951081 
G1 X-35.183441 Y31.914419 
G1 X-35.009825 Y31.842506 
G1 X-34.853575 Y31.738103 
G1 X-34.720694 Y31.605222 
G1 X-34.616291 Y31.448972 
G1 X-34.544378 Y31.275356 
G1 X-34.507716 Y31.091044 
G1 X-34.507716 Y30.903122 
G1 X-34.544378 Y30.718809 
G1 X-34.616291 Y30.545194 
G1 X-34.720694 Y30.388944 
G0 Z1.000000 
G0 X-42.251328 Y29.432309 
G1 Z0.130000 F144   
G1 X-42.107684 Y29.288666 F200   
G1 X-41.988278 Y29.124316 
G1 X-41.896053 Y28.943316 
G1 X-41.833278 Y28.750113 
G1 X-41.801500 Y28.549469 
G1 X-41.801500 Y28.346322 
G1 X-41.833278 Y28.145678 
G1 X-41.896053 Y27.952475 
G1 X-41.988278 Y27.771475 
G1 X-40.804866 Y26.562928 
G1 X-40.755906 Y26.562928 
G1 X-40.571594 Y26.526266 
G1 X-40.397978 Y26.454353 
G1 X-40.241728 Y26.349950 
G1 X-40.108847 Y26.217069 
G1 X-40.004444 Y26.060819 
G1 X-39.932531 Y25.887203 
G1 X-39.895869 Y25.702891 
G1 X-39.895869 Y25.514969 
G1 X-39.932531 Y25.330656 
G1 X-40.004444 Y25.157041 
G1 X-40.108847 Y25.000791 
G1 X-40.241728 Y24.867909 
G1 X-40.397978 Y24.763506 
G1 X-40.571594 Y24.691594 
G1 X-40.755906 Y24.654931 
G1 X-40.943828 Y24.654931 
G1 X-41.128141 Y24.691594 
G1 X-41.301756 Y24.763506 
G1 X-41.458006 Y24.867909 
G1 X-41.590888 Y25.000791 
G1 X-41.695291 Y25.157041 
G1 X-41.767203 Y25.330656 
G1 X-41.803866 Y25.514969 
G1 X-41.803866 Y25.563928 
G1 X-43.259469 Y27.019531 
G1 X-52.117694 Y18.161303 
G1 X-52.233394 Y18.083997 
G1 X-52.361950 Y18.030747 
G1 X-52.498422 Y18.003600 
G1 X-52.590753 Y18.003600 
G1 X-52.664331 Y17.902322 
G1 X-52.802322 Y17.764331 
G1 X-52.960203 Y17.649628 
G1 X-53.134081 Y17.561031 
G1 X-53.319678 Y17.500728 
G1 X-53.512422 Y17.470200 
G1 X-53.707575 Y17.470200 
G1 X-53.900319 Y17.500728 
G1 X-54.085916 Y17.561031 
G1 X-54.259794 Y17.649628 
G1 X-54.417675 Y17.764331 
G1 X-54.555666 Y17.902322 
G1 X-54.599456 Y17.962600 
G1 X-55.368753 Y17.962600 
G1 X-55.442331 Y17.861322 
G1 X-55.580322 Y17.723331 
G1 X-55.738203 Y17.608628 
G1 X-55.912081 Y17.520031 
G1 X-56.097678 Y17.459728 
G1 X-56.290422 Y17.429200 
G1 X-56.485575 Y17.429200 
G1 X-56.678319 Y17.459728 
G1 X-56.863916 Y17.520031 
G1 X-57.037794 Y17.608628 
G1 X-57.195675 Y17.723331 
G1 X-57.333666 Y17.861322 
G1 X-57.448369 Y18.019203 
G1 X-57.536966 Y18.193081 
G1 X-57.597269 Y18.378678 
G1 X-57.627797 Y18.571422 
G1 X-57.627797 Y18.766575 
G1 X-57.597269 Y18.959319 
G1 X-57.536966 Y19.144916 
G1 X-57.448369 Y19.318794 
G1 X-57.333666 Y19.476675 
G1 X-57.195675 Y19.614666 
G1 X-57.037794 Y19.729369 
G1 X-56.863916 Y19.817966 
G1 X-56.678319 Y19.878269 
G1 X-56.485575 Y19.908797 
G1 X-56.290422 Y19.908797 
G1 X-56.097678 Y19.878269 
G1 X-55.912081 Y19.817966 
G1 X-55.738203 Y19.729369 
G1 X-55.580322 Y19.614666 
G1 X-55.442331 Y19.476675 
G1 X-55.368753 Y19.375397 
G1 X-54.659031 Y19.375397 
G1 X-54.555666 Y19.517675 
G1 X-54.417675 Y19.655666 
G1 X-54.259794 Y19.770369 
G1 X-54.085916 Y19.858966 
G1 X-53.900319 Y19.919269 
G1 X-53.707575 Y19.949797 
G1 X-53.512422 Y19.949797 
G1 X-53.319678 Y19.919269 
G1 X-53.134081 Y19.858966 
G1 X-52.960203 Y19.770369 
G1 X-52.802322 Y19.655666 
G1 X-52.711828 Y19.565169 
G1 X-44.297063 Y27.979931 
G1 X-44.350919 Y28.145678 
G1 X-44.382697 Y28.346322 
G1 X-44.382697 Y28.549469 
G1 X-44.350919 Y28.750113 
G1 X-44.288144 Y28.943316 
G1 X-44.195919 Y29.124316 
G1 X-44.076512 Y29.288666 
G1 X-43.932869 Y29.432309 
G1 X-43.768519 Y29.551716 
G1 X-43.587519 Y29.643941 
G1 X-43.394316 Y29.706716 
G1 X-43.193672 Y29.738494 
G1 X-42.990525 Y29.738494 
G1 X-42.789881 Y29.706716 
G1 X-42.596678 Y29.643941 
G1 X-42.415678 Y29.551716 
G1 X-42.251328 Y29.432309 
G0 Z1.000000 
G0 X-42.367644 Y24.730213 
G1 Z0.130000 F144   
G1 X-42.194028 Y24.658300 F200   
G1 X-42.037778 Y24.553897 
G1 X-41.904897 Y24.421016 
G1 X-41.800494 Y24.264766 
G1 X-41.728581 Y24.091150 
G1 X-41.691919 Y23.906838 
G1 X-41.691919 Y23.718916 
G1 X-41.728581 Y23.534603 
G1 X-41.800494 Y23.360988 
G1 X-41.904897 Y23.204738 
G1 X-42.037778 Y23.071856 
G1 X-42.194028 Y22.967453 
G1 X-42.367644 Y22.895541 
G1 X-42.551956 Y22.858878 
G1 X-42.739878 Y22.858878 
G1 X-42.924191 Y22.895541 
G1 X-43.097806 Y22.967453 
G1 X-43.254056 Y23.071856 
G1 X-43.386938 Y23.204738 
G1 X-43.491341 Y23.360988 
G1 X-43.563253 Y23.534603 
G1 X-43.599916 Y23.718916 
G1 X-43.599916 Y23.906838 
G1 X-43.563253 Y24.091150 
G1 X-43.491341 Y24.264766 
G1 X-43.386938 Y24.421016 
G1 X-43.254056 Y24.553897 
G1 X-43.097806 Y24.658300 
G1 X-42.924191 Y24.730213 
G1 X-42.739878 Y24.766875 
G1 X-42.551956 Y24.766875 
G1 X-42.367644 Y24.730213 
G0 Z1.000000 
G0 X-39.829856 Y21.382206 
G1 Z0.130000 F144   
G1 X-40.215244 Y20.996819 F200   
G1 X-40.423812 Y20.493291 
G1 X-40.423812 Y19.948259 
G1 X-40.215244 Y19.444731 
G1 X-39.829856 Y19.059344 
G1 X-39.326328 Y18.850775 
G1 X-38.781297 Y18.850775 
G1 X-38.277769 Y19.059344 
G1 X-37.892381 Y19.444731 
G1 X-37.683813 Y19.948259 
G1 X-37.683813 Y20.493281 
G1 X-37.696959 Y20.532150 
G1 X-37.710516 Y20.600303 
G1 X-37.721381 Y20.654912 
G1 X-37.723569 Y20.682703 
G1 X-37.721381 Y20.738416 
G1 X-37.721381 Y20.794066 
G1 X-37.718106 Y20.821747 
G1 X-37.705100 Y20.875922 
G1 X-37.694237 Y20.930541 
G1 X-37.685622 Y20.957050 
G1 X-37.662300 Y21.007641 
G1 X-37.640988 Y21.059097 
G1 X-37.597262 Y21.124853 
G1 X-37.709653 Y21.171403 
G1 X-37.865903 Y21.275806 
G1 X-37.998784 Y21.408687 
G1 X-38.103187 Y21.564937 
G1 X-38.149738 Y21.677325 
G1 X-38.191172 Y21.647219 
G1 X-38.266975 Y21.612275 
G1 X-38.317538 Y21.588966 
G1 X-38.344047 Y21.580350 
G1 X-38.398694 Y21.569481 
G1 X-38.452841 Y21.556481 
G1 X-38.480522 Y21.553206 
G1 X-38.536203 Y21.553206 
G1 X-38.591884 Y21.551019 
G1 X-38.619675 Y21.553206 
G1 X-38.674312 Y21.564075 
G1 X-38.729319 Y21.572788 
G1 X-38.756147 Y21.580353 
G1 X-39.326328 Y21.590775 
G1 X-39.829856 Y21.382206 
G0 Z1.000000 
G0 X-39.794834 Y20.828916 
G1 Z0.130000 F144   
G1 X-39.661953 Y20.961797 F200   
G1 X-39.505703 Y21.066200 
G1 X-39.332088 Y21.138112 
G1 X-39.147775 Y21.174775 
G1 X-38.959853 Y21.174775 
G1 X-38.775541 Y21.138112 
G1 X-38.601925 Y21.066200 
G1 X-38.445675 Y20.961797 
G1 X-38.312794 Y20.828916 
G1 X-38.208391 Y20.672666 
G1 X-38.136478 Y20.499050 
G1 X-38.099816 Y20.314737 
G1 X-38.099816 Y20.126816 
G1 X-38.136478 Y19.942503 
G1 X-38.208391 Y19.768888 
G1 X-38.312794 Y19.612638 
G1 X-38.445675 Y19.479756 
G1 X-38.601925 Y19.375353 
G1 X-38.775541 Y19.303441 
G1 X-38.959853 Y19.266778 
G1 X-39.147775 Y19.266778 
G1 X-39.332088 Y19.303441 
G1 X-39.505703 Y19.375353 
G1 X-39.661953 Y19.479756 
G1 X-39.794834 Y19.612638 
G1 X-39.899237 Y19.768888 
G1 X-39.971150 Y19.942503 
G1 X-40.007813 Y20.126816 
G1 X-40.007813 Y20.314737 
G1 X-39.971150 Y20.499050 
G1 X-39.899237 Y20.672666 
G1 X-39.794834 Y20.828916 
G0 Z1.000000 
G0 X-40.104594 Y11.620959 
G1 Z0.130000 F144   
G1 X-39.879038 Y11.395403 F200   
G1 X-39.680156 Y11.146016 
G1 X-39.510450 Y10.875925 
G1 X-39.372047 Y10.588531 
G1 X-39.266694 Y10.287450 
G1 X-39.195716 Y9.976466 
G1 X-39.160000 Y9.659491 
G1 X-39.160000 Y9.340506 
G1 X-39.195716 Y9.023531 
G1 X-39.266694 Y8.712547 
G1 X-39.372047 Y8.411466 
G1 X-39.510450 Y8.124072 
G1 X-39.680156 Y7.853981 
G1 X-39.879038 Y7.604594 
G1 X-40.104594 Y7.379037 
G1 X-40.353981 Y7.180156 
G1 X-40.624072 Y7.010450 
G1 X-40.911466 Y6.872047 
G1 X-41.212547 Y6.766694 
G1 X-41.476741 Y6.706397 
G1 X-36.022600 Y6.706397 
G1 X-34.870213 Y7.858781 
G1 X-34.889797 Y7.982422 
G1 X-34.889797 Y8.177575 
G1 X-34.859269 Y8.370319 
G1 X-34.798966 Y8.555916 
G1 X-34.710369 Y8.729794 
G1 X-34.595666 Y8.887675 
G1 X-34.457675 Y9.025666 
G1 X-34.299794 Y9.140369 
G1 X-34.125916 Y9.228966 
G1 X-33.940319 Y9.289269 
G1 X-33.747575 Y9.319797 
G1 X-33.552422 Y9.319797 
G1 X-33.359678 Y9.289269 
G1 X-33.174081 Y9.228966 
G1 X-33.000203 Y9.140369 
G1 X-32.842322 Y9.025666 
G1 X-32.704331 Y8.887675 
G1 X-32.589628 Y8.729794 
G1 X-32.501031 Y8.555916 
G1 X-32.440728 Y8.370319 
G1 X-32.410200 Y8.177575 
G1 X-32.410200 Y7.982422 
G1 X-32.440728 Y7.789678 
G1 X-32.501031 Y7.604081 
G1 X-32.589628 Y7.430203 
G1 X-32.704331 Y7.272322 
G1 X-32.842322 Y7.134331 
G1 X-33.000203 Y7.019628 
G1 X-33.174081 Y6.931031 
G1 X-33.359678 Y6.870728 
G1 X-33.552422 Y6.840200 
G1 X-33.747575 Y6.840200 
G1 X-33.871216 Y6.859784 
G1 X-35.181303 Y5.549694 
G1 X-35.279694 Y5.451303 
G1 X-35.395394 Y5.373997 
G1 X-35.523950 Y5.320747 
G1 X-35.660422 Y5.293600 
G1 X-46.759925 Y5.293600 
G1 X-46.926672 Y5.255500 
G1 X-47.073325 Y5.255500 
G1 X-47.217163 Y5.284109 
G1 X-47.352650 Y5.340231 
G1 X-47.474591 Y5.421709 
G1 X-47.578288 Y5.525406 
G1 X-47.659766 Y5.647347 
G1 X-47.715888 Y5.782834 
G1 X-47.744497 Y5.926672 
G1 X-47.744497 Y6.073325 
G1 X-47.715888 Y6.217162 
G1 X-47.659766 Y6.352650 
G1 X-47.578288 Y6.474591 
G1 X-47.474591 Y6.578288 
G1 X-47.352650 Y6.659766 
G1 X-47.217163 Y6.715888 
G1 X-47.073325 Y6.744497 
G1 X-46.926672 Y6.744497 
G1 X-46.782834 Y6.715888 
G1 X-42.523256 Y6.706397 
G1 X-42.787450 Y6.766694 
G1 X-43.088531 Y6.872047 
G1 X-43.375925 Y7.010450 
G1 X-43.646016 Y7.180156 
G1 X-43.895403 Y7.379037 
G1 X-44.120959 Y7.604594 
G1 X-44.319841 Y7.853981 
G1 X-44.489547 Y8.124072 
G1 X-44.627950 Y8.411466 
G1 X-44.733303 Y8.712547 
G1 X-44.804281 Y9.023531 
G1 X-44.839997 Y9.340506 
G1 X-44.839997 Y9.659491 
G1 X-44.804281 Y9.976466 
G1 X-44.733303 Y10.287450 
G1 X-44.627950 Y10.588531 
G1 X-44.489547 Y10.875925 
G1 X-44.319841 Y11.146016 
G1 X-44.120959 Y11.395403 
G1 X-43.895403 Y11.620959 
G1 X-43.646016 Y11.819841 
G1 X-43.375925 Y11.989547 
G1 X-43.088531 Y12.127950 
G1 X-42.787450 Y12.233303 
G1 X-42.476466 Y12.304281 
G1 X-42.159491 Y12.339997 
G1 X-41.840506 Y12.339997 
G1 X-41.523531 Y12.304281 
G1 X-41.212547 Y12.233303 
G1 X-40.911466 Y12.127950 
G1 X-40.624072 Y11.989547 
G1 X-40.353981 Y11.819841 
G1 X-40.104594 Y11.620959 
G0 Z1.000000 
G0 X-33.330369 Y11.569794 
G1 Z0.130000 F144   
G1 X-33.215666 Y11.727675 F200   
G1 X-33.077675 Y11.865666 
G1 X-32.976397 Y11.939244 
G1 X-32.976397 Y15.517397 
G1 X-33.329741 Y15.870744 
G1 X-33.474591 Y15.961709 
G1 X-33.578288 Y16.065406 
G1 X-33.659766 Y16.187347 
G1 X-33.715888 Y16.322834 
G1 X-33.744497 Y16.466672 
G1 X-33.744497 Y16.613325 
G1 X-33.715888 Y16.757162 
G1 X-33.659766 Y16.892650 
G1 X-33.578288 Y17.014591 
G1 X-33.474591 Y17.118288 
G1 X-33.352650 Y17.199766 
G1 X-33.217163 Y17.255888 
G1 X-33.073325 Y17.284497 
G1 X-32.926672 Y17.284497 
G1 X-32.782834 Y17.255888 
G1 X-32.647347 Y17.199766 
G1 X-32.525406 Y17.118288 
G1 X-32.421709 Y17.014591 
G1 X-32.340231 Y16.892650 
G1 X-31.721303 Y16.260303 
G1 X-31.643997 Y16.144603 
G1 X-31.590747 Y16.016047 
G1 X-31.563600 Y15.879575 
G1 X-31.563600 Y11.939244 
G1 X-31.462322 Y11.865666 
G1 X-31.324331 Y11.727675 
G1 X-31.209628 Y11.569794 
G1 X-31.121031 Y11.395916 
G1 X-31.060728 Y11.210319 
G1 X-31.030200 Y11.017575 
G1 X-31.030200 Y10.822422 
G1 X-31.060728 Y10.629678 
G1 X-31.121031 Y10.444081 
G1 X-31.209628 Y10.270203 
G1 X-31.324331 Y10.112322 
G1 X-31.462322 Y9.974331 
G1 X-31.620203 Y9.859628 
G1 X-31.794081 Y9.771031 
G1 X-31.979678 Y9.710728 
G1 X-32.172422 Y9.680200 
G1 X-32.367575 Y9.680200 
G1 X-32.560319 Y9.710728 
G1 X-32.745916 Y9.771031 
G1 X-32.919794 Y9.859628 
G1 X-33.077675 Y9.974331 
G1 X-33.215666 Y10.112322 
G1 X-33.330369 Y10.270203 
G1 X-33.418966 Y10.444081 
G1 X-33.479269 Y10.629678 
G1 X-33.509797 Y10.822422 
G1 X-33.509797 Y11.017575 
G1 X-33.479269 Y11.210319 
G1 X-33.418966 Y11.395916 
G1 X-33.330369 Y11.569794 
G0 Z1.000000 
G0 X-31.825666 Y8.887675 
G1 Z0.130000 F144   
G1 X-31.687675 Y9.025666 F200   
G1 X-31.529794 Y9.140369 
G1 X-31.355916 Y9.228966 
G1 X-31.170319 Y9.289269 
G1 X-30.977575 Y9.319797 
G1 X-30.782422 Y9.319797 
G1 X-30.589678 Y9.289269 
G1 X-30.404081 Y9.228966 
G1 X-30.230203 Y9.140369 
G1 X-30.072322 Y9.025666 
G1 X-29.934331 Y8.887675 
G1 X-29.819628 Y8.729794 
G1 X-29.731031 Y8.555916 
G1 X-29.670728 Y8.370319 
G1 X-29.640200 Y8.177575 
G1 X-29.640200 Y7.982422 
G1 X-29.670728 Y7.789678 
G1 X-29.731031 Y7.604081 
G1 X-29.819628 Y7.430203 
G1 X-29.934331 Y7.272322 
G1 X-30.072322 Y7.134331 
G1 X-30.230203 Y7.019628 
G1 X-30.404081 Y6.931031 
G1 X-30.589678 Y6.870728 
G1 X-30.782422 Y6.840200 
G1 X-30.977575 Y6.840200 
G1 X-31.101216 Y6.859784 
G1 X-34.629694 Y3.331303 
G1 X-34.745394 Y3.253997 
G1 X-34.873950 Y3.200747 
G1 X-35.010422 Y3.173600 
G1 X-47.973575 Y3.173600 
G1 X-48.110047 Y3.200747 
G1 X-48.238603 Y3.253997 
G1 X-48.354303 Y3.331303 
G1 X-48.452694 Y3.429694 
G1 X-51.976694 Y6.953694 
G1 X-52.054000 Y7.069394 
G1 X-52.107250 Y7.197950 
G1 X-52.134397 Y7.334422 
G1 X-52.134397 Y14.985397 
G1 X-52.599947 Y15.450947 
G1 X-52.664331 Y15.362322 
G1 X-52.802322 Y15.224331 
G1 X-52.960203 Y15.109628 
G1 X-53.134081 Y15.021031 
G1 X-53.319678 Y14.960728 
G1 X-53.512422 Y14.930200 
G1 X-53.707575 Y14.930200 
G1 X-53.900319 Y14.960728 
G1 X-54.085916 Y15.021031 
G1 X-54.259794 Y15.109628 
G1 X-54.417675 Y15.224331 
G1 X-54.555666 Y15.362322 
G1 X-54.599456 Y15.422600 
G1 X-55.368753 Y15.422600 
G1 X-55.442331 Y15.321322 
