(.../pcb-gcode-master/pcb-gcode.ulp)
(Copyright 2005 - 2012 by John Johnson)
(See readme.txt for licensing terms.)
(This file generated from the board:)
(.../Laser-Terminal/Schematics/Laser_Terminal.brd)
(Current profile is .../pcb-gcode-3.6.2.4/profiles/grbl-NuggetMill.pp  )
(This file generated 12/10/18 14:10)
(Settings from pcb-machine.h)
(spindle on time = 0.0000)
(spindle speed = 20000.0000)
(tool change at 0.000000 0.000000 12.700000 )
(feed rate xy = F0     )
(feed rate z  = F144   )
(Z Axis Settings)
(  High     Up        Down     Drill)
(12.700000 	1.000000 	0.130000 	-1.650000 )
(Settings from pcb-defaults.h)
(isolate min = 0.0100)
(isolate max = 0.1000)
(isolate step = 0.1000)
(Generated bottom outlines, bottom drill, )
(Unit of measure: mm)
( Tool|       Size       |  Min Sub |  Max Sub |   Count )
( T01  0.800mm 0.0315in 0.0000in 0.0000in )
( T02  0.813mm 0.0320in 0.0000in 0.0000in )
( T03  0.900mm 0.0354in 0.0000in 0.0000in )
( T04  1.000mm 0.0394in 0.0000in 0.0000in )
( T05  1.016mm 0.0400in 0.0000in 0.0000in )
( T06  1.300mm 0.0512in 0.0000in 0.0000in )
( T07  3.302mm 0.1300in 0.0000in 0.0000in )
(Metric Mode)
G21
(Absolute Coordinates)
G90
G0 Z12.700000 
G0 X0.000000 Y0.000000 
M3
G4 P0
M4
M6 T01  ; 0.800000 
G0 Z1.000000 
M3
G4 P0
G0 Z1.000000
G0 X-14.589612 Y24.864981 
G1 Z-1.650000 F144   
G1 Z1.000000
(R1.000000  P1.000000)
G0 X-18.181716 Y28.457084 
G1 Z-1.650000 F144   
G0 Z1.000000 
G0 X-23.569869 Y23.068931 
G1 Z-1.650000 F144   
G0 Z1.000000 
G0 X-25.365919 Y21.272878 
G1 Z-1.650000 F144   
G0 Z1.000000 
G0 X-21.773816 Y17.680778 
G1 Z-1.650000 F144   
G0 Z1.000000 
G0 X-19.977766 Y19.476828 
G1 Z-1.650000 F144   
G0 Z1.000000 
G0 X-31.869612 Y24.864981 
G1 Z-1.650000 F144   
G0 Z1.000000 
G0 X-35.461716 Y28.457084 
G1 Z-1.650000 F144   
G0 Z1.000000 
G0 X-40.849869 Y23.068931 
G1 Z-1.650000 F144   
G0 Z1.000000 
G0 X-42.645919 Y21.272878 
G1 Z-1.650000 F144   
G0 Z1.000000 
G0 X-39.053816 Y17.680778 
G1 Z-1.650000 F144   
G0 Z1.000000 
G0 X-37.257766 Y19.476828 
G1 Z-1.650000 F144   
G0 Z1.000000 
M4
G0 Z12.700000 
G0 X0.000000 Y0.000000 
M6 T02  ; 0.812800 
G0 Z1.000000 
M3
G4 P0
G0 Z1.000000
G0 X-15.535372 Y54.644972 
G1 Z-1.650000 F144   
G1 Z1.000000
(R1.000000  P1.000000)
G0 X-17.331425 Y56.441025 
G1 Z-1.650000 F144   
G0 Z1.000000 
G0 X-24.544572 Y54.632572 
G1 Z-1.650000 F144   
G0 Z1.000000 
G0 X-26.340625 Y56.428625 
G1 Z-1.650000 F144   
G0 Z1.000000 
G0 X-33.552172 Y54.633572 
G1 Z-1.650000 F144   
G0 Z1.000000 
G0 X-35.348225 Y56.429625 
G1 Z-1.650000 F144   
G0 Z1.000000 
G0 X-42.644772 Y54.657972 
G1 Z-1.650000 F144   
G0 Z1.000000 
G0 X-44.440825 Y56.454025 
G1 Z-1.650000 F144   
G0 Z1.000000 
M4
G0 Z12.700000 
G0 X0.000000 Y0.000000 
M6 T03  ; 0.900000 
G0 Z1.000000 
M3
G4 P0
G0 Z1.000000
G0 X-11.739922 Y50.956075 
G1 Z-1.650000 F144   
G1 Z1.000000
(R1.000000  P1.000000)
G0 X-17.128075 Y45.567922 
G1 Z-1.650000 F144   
G0 Z1.000000 
G0 X-20.825922 Y50.956075 
G1 Z-1.650000 F144   
G0 Z1.000000 
G0 X-26.214075 Y45.567922 
G1 Z-1.650000 F144   
G0 Z1.000000 
G0 X-29.873922 Y50.956075 
G1 Z-1.650000 F144   
G0 Z1.000000 
G0 X-35.262075 Y45.567922 
G1 Z-1.650000 F144   
G0 Z1.000000 
G0 X-38.929922 Y50.956075 
G1 Z-1.650000 F144   
G0 Z1.000000 
G0 X-44.318075 Y45.567922 
G1 Z-1.650000 F144   
G0 Z1.000000 
M4
G0 Z12.700000 
G0 X0.000000 Y0.000000 
M6 T04  ; 1.000000 
G0 Z1.000000 
M3
G4 P0
G0 Z1.000000
G0 X-18.000000 Y14.000000 
G1 Z-1.650000 F144   
G1 Z1.000000
(R1.000000  P1.000000)
G0 X-26.092100 Y25.407897 
G1 Z-1.650000 F144   
G0 Z1.000000 
G0 X-18.907897 Y32.592100 
G1 Z-1.650000 F144   
G0 Z1.000000 
G0 X-35.907897 Y33.092100 
G1 Z-1.650000 F144   
G0 Z1.000000 
G0 X-43.092100 Y25.907897 
G1 Z-1.650000 F144   
G0 Z1.000000 
G0 X-33.000000 Y14.000000 
G1 Z-1.650000 F144   
G0 Z1.000000 
M4
G0 Z12.700000 
G0 X0.000000 Y0.000000 
M6 T05  ; 1.016000 
G0 Z1.000000 
M3
G4 P0
G0 Z1.000000
G0 X-3.000000 Y11.000000 
G1 Z-1.650000 F144   
G1 Z1.000000
(R1.000000  P1.000000)
G0 X-5.350000 Y11.090000 
G1 Z-1.650000 F144   
G0 Z1.000000 
G0 X-5.350000 Y13.630000 
G1 Z-1.650000 F144   
G0 Z1.000000 
G0 X-3.000000 Y13.540000 
G1 Z-1.650000 F144   
G0 Z1.000000 
G0 X-3.000000 Y16.080000 
G1 Z-1.650000 F144   
G0 Z1.000000 
G0 X-5.350000 Y16.170000 
G1 Z-1.650000 F144   
G0 Z1.000000 
G0 X-5.350000 Y18.710000 
G1 Z-1.650000 F144   
G0 Z1.000000 
G0 X-3.000000 Y18.620000 
G1 Z-1.650000 F144   
G0 Z1.000000 
G0 X-3.000000 Y21.160000 
G1 Z-1.650000 F144   
G0 Z1.000000 
G0 X-5.350000 Y21.250000 
G1 Z-1.650000 F144   
G0 Z1.000000 
G0 X-5.350000 Y23.790000 
G1 Z-1.650000 F144   
G0 Z1.000000 
G0 X-3.000000 Y23.700000 
G1 Z-1.650000 F144   
G0 Z1.000000 
G0 X-5.350000 Y28.870000 
G1 Z-1.650000 F144   
G0 Z1.000000 
G0 X-5.350000 Y31.410000 
G1 Z-1.650000 F144   
G0 Z1.000000 
G0 X-5.350000 Y33.950000 
G1 Z-1.650000 F144   
G0 Z1.000000 
G0 X-5.350000 Y36.490000 
G1 Z-1.650000 F144   
G0 Z1.000000 
G0 X-5.350000 Y39.030000 
G1 Z-1.650000 F144   
G0 Z1.000000 
G0 X-5.350000 Y41.570000 
G1 Z-1.650000 F144   
G0 Z1.000000 
G0 X-7.740000 Y35.106000 
G1 Z-1.650000 F144   
G0 Z1.000000 
G0 X-13.812000 Y35.106000 
G1 Z-1.650000 F144   
G0 Z1.000000 
G0 X-24.061000 Y31.761000 
G1 Z-1.650000 F144   
G0 Z1.000000 
G0 X-27.971000 Y35.598000 
G1 Z-1.650000 F144   
G0 Z1.000000 
G0 X-27.806000 Y16.040000 
G1 Z-1.650000 F144   
G0 Z1.000000 
G0 X-31.869700 Y16.040300 
G1 Z-1.650000 F144   
G0 Z1.000000 
G0 X-32.270000 Y10.920000 
G1 Z-1.650000 F144   
G0 Z1.000000 
G0 X-35.040000 Y10.920000 
G1 Z-1.650000 F144   
G0 Z1.000000 
G0 X-33.650000 Y8.080000 
G1 Z-1.650000 F144   
G0 Z1.000000 
G0 X-30.880000 Y8.080000 
G1 Z-1.650000 F144   
G0 Z1.000000 
G0 X-28.120000 Y8.080000 
G1 Z-1.650000 F144   
G0 Z1.000000 
G0 X-25.350000 Y8.080000 
G1 Z-1.650000 F144   
G0 Z1.000000 
G0 X-26.730000 Y10.920000 
G1 Z-1.650000 F144   
G0 Z1.000000 
G0 X-23.960000 Y10.920000 
G1 Z-1.650000 F144   
G0 Z1.000000 
G0 X-29.500000 Y10.920000 
G1 Z-1.650000 F144   
G0 Z1.000000 
G0 X-49.000000 Y8.500000 
G1 Z-1.650000 F144   
G0 Z1.000000 
G0 X-53.936000 Y8.372000 
G1 Z-1.650000 F144   
G0 Z1.000000 
G0 X-53.610000 Y11.090000 
G1 Z-1.650000 F144   
G0 Z1.000000 
G0 X-53.610000 Y13.630000 
G1 Z-1.650000 F144   
G0 Z1.000000 
G0 X-53.610000 Y16.170000 
G1 Z-1.650000 F144   
G0 Z1.000000 
G0 X-53.610000 Y18.710000 
G1 Z-1.650000 F144   
G0 Z1.000000 
G0 X-53.610000 Y21.250000 
G1 Z-1.650000 F144   
G0 Z1.000000 
G0 X-53.610000 Y23.790000 
G1 Z-1.650000 F144   
G0 Z1.000000 
G0 X-53.610000 Y26.330000 
G1 Z-1.650000 F144   
G0 Z1.000000 
G0 X-53.610000 Y28.870000 
G1 Z-1.650000 F144   
G0 Z1.000000 
G0 X-53.610000 Y32.680000 
G1 Z-1.650000 F144   
G0 Z1.000000 
G0 X-53.610000 Y35.220000 
G1 Z-1.650000 F144   
G0 Z1.000000 
G0 X-53.610000 Y37.760000 
G1 Z-1.650000 F144   
G0 Z1.000000 
G0 X-53.610000 Y40.300000 
G1 Z-1.650000 F144   
G0 Z1.000000 
G0 X-53.610000 Y42.840000 
G1 Z-1.650000 F144   
G0 Z1.000000 
G0 X-56.000000 Y43.000000 
G1 Z-1.650000 F144   
G0 Z1.000000 
G0 X-56.000000 Y45.540000 
G1 Z-1.650000 F144   
G0 Z1.000000 
G0 X-53.610000 Y45.380000 
G1 Z-1.650000 F144   
G0 Z1.000000 
G0 X-53.610000 Y47.920000 
G1 Z-1.650000 F144   
G0 Z1.000000 
G0 X-53.610000 Y50.460000 
G1 Z-1.650000 F144   
G0 Z1.000000 
M4
G0 Z12.700000 
G0 X0.000000 Y0.000000 
M6 T06  ; 1.300000 
G0 Z1.000000 
M3
G4 P0
G0 Z1.000000
G0 X-47.000000 Y6.000000 
G1 Z-1.650000 F144   
G1 Z1.000000
(R1.000000  P1.000000)
G0 X-55.000000 Y6.000000 
G1 Z-1.650000 F144   
G0 Z1.000000 
M4
G0 Z12.700000 
G0 X0.000000 Y0.000000 
M6 T07  ; 3.302000 
G0 Z1.000000 
M3
G4 P0
G0 Z1.000000
G0 X-17.000000 Y9.500000 
G1 Z-1.650000 F144   
G1 Z1.000000
(R1.000000  P1.000000)
G0 X-42.000000 Y9.500000 
G1 Z-1.650000 F144   
G0 Z1.000000 
T01 
G0 Z12.700000 
M4
G0 X0 Y0
